!!!!SEGMENT: pl-wtm--a-30-611-78_rozycki-ludomir--balladyna-op-25.krn
!!!cenid: 19xx:152
!!!COM: Różycki, Ludomir
!!!COM-rismID: pe50045573
!!!CDT: 1883-1953
!!!CNT: Polish
!!!OTL: Balladyna op. 25
!!!PDT:
!!!AGN:
!!!YEC: Copyright 2022 Narodowy Instytut Fryderyka Chopina (https://polishscores.org)
!!!YEM: License CC-BY-4.0 (https://creativecommons.org/licenses/by/4.0)
!!!SMS-siglum: PL-Wtm
!!!SMS-shelfmark: A.30.611/78
!!!SMS-variant:
!!!SMS-altvar:
!!!SMS-shelfwork: W
!!!NIFC-rismSourceID: 1001198326
!!!NIFC-rismChildID: 1001198326
!!!NIFC-islandoraID: pl-wtm:62750
!!!URL-pdf-islandora: https://repozytorium.nifc.pl/islandora/object/pl-wtm%3A62750/datastream/PDF/view
!!!URL-scan: https://polish.musicsources.pl/pl/lokalizacje/galeria/druki-muzyczne/20659/3 @EN{Scan on Polish Music Sources Website} @PL{Skany w portalu Dziedzictwo Muzyki Polskiej w otwartym dostępie}
!!!IIIF:
!!!ONB-nifc:
!!!OMD: Andantino. M.M. [quarter]=60.
!!!AIN: 1 piano
!!!key: A-
**kern	**kern	**dynam
*part1	*part1	*part1
*staff2	*staff1	*
*ICklav	*ICklav	*
*Ipiano	*Ipiano	*
*I"PIANO.	*I"PIANO.	*
*clefF4	*clefG2	*
*k[b-e-a-d-]	*k[b-e-a-d-]	*
*A-:	*A-:	*
*M6/8	*M6/8	*
=1	=1	=1
*MM60	*MM60	*
*^	*	*
*ped	*	*	*
!	!LO:N:vis=16.	!	!
4.A-/	(>16A-\LL	(>4.b-/	p
.	16B-\	.	.
.	16d-\	.	.
.	16a-\JJ	.	.
.	16f>\LL	.	.
.	16b->\JJ)	.	.
!	!LO:N:vis=16.	!	!
4.A-/	(>16A-\LL	8cc/L	.
.	16B-\	.	.
.	16d-\	8..dd-/	.
.	16a-\JJ	.	.
.	16f>\LL	.	.
.	16b->\JJ)	.	.
*Xped	*	*	*
.	.	32ff/Jkk	.
=2	=2	=2	=2
*ped	*	*	*
!	!LO:N:vis=16.	!	!
4.G/	(>16G\LL	4.ff/	.
.	16B-\	.	.
.	16d-\	.	.
.	16g\JJ	.	.
.	16f>\LL	.	.
.	16b->\JJ)	.	.
!	!LO:N:vis=16.	!	!
4.G/	16G\LL	8ee-/L	.
.	16B-\	.	.
.	16d-\	8dd-/	.
.	16g\JJ	.	.
.	16cc>\LL	8cc/J	.
*Xped	*	*	*
.	16f>\JJ	.	.
!!LO:LB:g=original
=3	=3	=3	=3
*ped	*	*	*
!	!LO:N:vis=16.	!	!
4.A-/	16A-\LL	[4b-/	.
.	16B-\	.	.
.	16d-\	.	.
.	16a-\JJ	.	.
.	16f>\LL	16b-/LL]	.
.	16cc>\JJ	[16cc/JJ	.
(16A-\LL	4.ryy	8cc/L]	.
16B-\	.	.	.
16d-\	.	8.b-/	.
16a-\	.	.	.
16d-\	.	.	.
*Xped	*	*	*
16B-\JJ)	.	16f/Jk	.
*v	*v	*	*
=4	=4	=4
!LO:TX:b:i:t=simile	!	!
N(16G\LL	4f/)	.
16B-\	.	.
16d-\	.	.
16g\JJ	.	.
8r	16f/LL	.
.	16b-/JJ	.
!	!LO:TUP:b:r=8	!
4.r	24en/LL	.
.	24f/	.
.	24f#X/J	.
!	!LO:TUP:b:r=8	!
.	24g/L	.
.	24a-/	.
.	24an/J	.
!	!LO:TUP:b:r=8	!
.	24b-/L	.
.	24bn/	.
.	24cc/JJ	.
!!LO:LB:g=original
=5	=5	=5
*^	*	*
!	!LO:N:vis=16.	!	!
4.F/	(>16F\LL	4.dd-/	.
.	16B-\	.	.
.	16d-\	.	.
.	16a-\JJ	.	.
.	16f>\LL	.	.
.	16b->\JJ)	.	.
4F/	(>16F\LL	8ee-/L	.
.	16B-\	.	.
.	16d-\	8..ff/	.
.	16a-\JJ	.	.
8ryy	24f>\LL	.	.
.	24b->\	.	.
.	24dd->\JJ)	.	.
.	.	32aa-/Jkk	.
*v	*v	*	*
=6	=6	=6
(16D-\LL	4.aa-/	.
16B-\	.	.
16d-\	.	.
16a-\JJ	.	.
24f>\LL	.	.
24b->\	.	.
24dd->\JJ)	.	.
(16D-\LL	8gg/L	.
16B-\	.	.
16d-\	8.ff/	.
16a-\JJ	.	.
24f>\LL	.	.
24b->\	.	.
.	16ee-/Jk	.
24ee->\JJ)	.	.
!!LO:LB:g=original
=7	=7	=7
16BB-\LL	[>4dd-/	.
16F\	.	.
16A-\	.	.
16d-\JJ	.	.
24f>\LL	16dd-/LL]	.
24b->\	.	.
.	[>16ee-/JJ	.
24ee->\JJ	.	.
16BB-\LL	8ee-/L]	.
16F\	.	.
16A-\	8.dd-/	.
16d-\JJ	.	.
16f>\LL	.	.
16b->\JJ	16b-/Jk	.
=8	=8	=8
*^	*	*
4AA-^/	16AA-\LL	4b-/N)	.
.	16D-\	.	.
.	16F\	.	.
.	16A-\JJ	.	.
!	!	!LO:TUP:b	!
[8BB-^>/	2ryy	(24c/LL	<
.	.	24d-/	.
.	.	24e-/JJ	.
!	!	!LO:TUP:a	!
8BB-/L]	.	24f\LL	.
.	.	24g\	.
.	.	24a-\J	.
8.AA-^/	.	32b-\LL	.
.	.	32cc\	.
.	.	32dd-\	.
.	.	32ee-\	.
.	.	32ff\	.
.	.	32gg\	.
16FF^/Jk	.	32aa-\	.
.	.	32bb-\JJJ)	[
*v	*v	*	*
!!LO:PB:g=original
=9	=9	=9
*MM100	*MM100	*
!	!LO:TX:a:t=Allegro. M.M. [quarter]=100	!
(8D-\L	(4cc\ 4ccc	mf >
8G\	.	.
8B-\J	[8ff\	]
4.f\)	8ff\L]	<
.	8.gg\	.
.	16b-\Jk) 16bb-	[
=10	=10	=10
!LO:N:vis=16	!	!
!LO:TUP:a	!	!
(32%3C\L	(4b-\ 4bb-	>
32%3E-\	.	.
32%3A-\	.	.
.	[8ee-\	]
32%3c\J)	.	.
!LO:N:vis=16	!	!
!LO:TUP:a	!	!
(32%3BBn\L	8ee-\L]	<
32%3F\	.	.
.	8.ff\	.
32%3A-\	.	.
32%3dn\J)	.	.
.	16a-\Jk) 16aa-	[
=11	=11	=11
(16BB-X\LL	(4a-\ 4aa-	>
16F\	.	.
16A-\	.	.
16d-X\	.	.
*clefG2	*	*
16f\	[8g\ [8gg	]
16a-\JJ	.	.
4.dd-\)	8g\L]) 8gg]	.
.	(8een\	.
.	8ff\J	.
*clefF4	*	*
=12	=12	=12
(4e-\	4ee-X\	.
[8d-\	8dd-\)	.
8d-\L]	(16cc\LL	<
.	16dd-\J	.
8c\	16ee-\L	.
.	16ff\J	.
!	!LO:TUP:a	!
8B-\J)	24gg\L	.
.	24aa-\	.
.	24bb-\JJ	[
!!LO:LB:g=original
=13	=13	=13
(8D-\L	4cc\ 4ccc	>
8G\	.	.
8B-\J	[8ff\	]
4.f\)	8ff\L]	<
.	8.gg\	.
.	16b-\Jk) 16bb-	[
=14	=14	=14
!LO:N:vis=16	!	!
!LO:TUP:a	!	!
(32%3C\L	(4b-\ 4bb-	.
32%3E-\	.	.
32%3A-\	.	.
.	[8ee-\	.
32%3e-\J)	.	.
!LO:N:vis=16	!	!
!LO:TUP:a	!	!
(32%3BBn\L	8ee-\L]	.
32%3F\	.	.
.	8.ff\	.
32%3A-\	.	.
32%3dn\J)	.	.
.	16a-\Jk) 16aa-	.
=15	=15	=15
*ped	*	*
!	!	!LO:HP:a:t=crescendo poco a poco
(16BB-X\LL	(4a-\ 4aa-	<
16F\	.	.
16A-\	.	.
16d-X\	.	.
16A-\	[8g\) [8gg	.
16F\JJ)	.	.
(16BB-\LL	8g\L] 8gg]	.
16F\	.	.
16A-\	8en~\ 8een	.
16d-\	.	.
16A-\	[8f~\J [8ff	.
*Xped	*	*
16F\JJ)	.	.
!!LO:LB:g=original
=16	=16	=16
*ped	*	*
(16AA-\LL	8f\L] 8ff]	.
16D-\	.	.
16F\	8e-X^\ 8ee-X	.
16B-\	.	.
16F\	8d-^\J 8dd-	.
16D-\JJ	.	.
16AA-\LL	8c^/L 8cc	.
16D-\	.	.
16F\	8d-^/ 8dd-	.
16B-\	.	.
16F\	8e-^/J 8ee-	.
*Xped	*	*
16D-\JJ)	.	.
=17	=17	=17
*ped	*	*
(16GG\LL	(4f\ 4ff	>
16D-\	.	.
16F\	.	.
16B-\	.	.
16F\	[8e-/) [8ee-	]
16D-\JJ	.	.
16GG\LL	8e-\L] 8ee-]	.
16D-\	.	.
16F\	8c~\ 8cc	.
16B-\	.	.
16F\	[8d-~\J [8dd-	.
*Xped	*	*
16D-\JJ)	.	.
=18	=18	=18
*ped	*	*
(16FF/LL	8d-/L] 8dd-]	.
16BB-/	.	.
16D-/	8c^/ 8cc	.
16G/	.	.
16D-/	8B-^/J 8b-	.
16BB-/JJ	.	.
16FF/LL	8An^/L 8an	.
16BB-/	.	.
16D-/	8B-^/ 8b-	.
16G/	.	.
16D-/	8c^/J 8cc	.
*Xped	*	*
16BB-/JJ)	.	.
!!LO:LB:g=original
=19	=19	=19
*ped	*	*
(16FF-X\LL	4.d-/ 4.dd-	f
16AA-\	.	.
16D-\	.	.
16F-X\	.	.
16A-\	.	.
16d-\JJ	.	.
4.f-X\)	8b-^\L 8bb-	.
*Xped	*	*
.	8cc^\ 8ccc	.
.	8dd-^\J 8ddd-	.
=20	=20	=20
*ped	*	*
4.EEE-/ 4.EE-	(16dd-\LL 16ddd-	.
.	16bb-\	.
.	16gg\	.
.	16ff-X\	.
.	16dd-\	.
.	16b-\JJ	.
!	!	!LO:DY:a
8BB-^\L 8B-	4.g/)	sfz
*Xped	*	*
8C^\ 8c	.	.
8D-^\J 8d-	.	.
=21	=21	=21
*ped	*	*
(16DD-\LL	4.f-X\ 4.ff-X	.
16AA-\	.	.
16D-\	.	.
16F-X\	.	.
16A-\	.	.
16d-\JJ	.	.
4.f-X\)	8dd-^\L 8ddd-	.
.	8ee-^\ 8eee-	.
*Xped	*	*
.	8ff-^\J 8fff-X	.
=22	=22	=22
*8ba	*	*
4.BBBB-/ 4.BBB-	(16ff-X\LL 16fff-X	.
.	16ddd-\	.
.	16bb-\	.
.	16aa-\	.
.	16ff-\	.
.	16dd-\JJ	.
*X8ba	*	*
!	!	!LO:DY:a
8D-\L 8d-	4.b-\)	sfz
8E-\ 8e-	.	.
8F-X\J 8f-X	.	.
!!LO:LB:g=original
=23	=23	=23
*ped	*	*
!	!LO:TX:a:t=Presto.	!
8EEE-/ 8EE-	(4ff-X\ 4aa- 4ccc 4fff-X	.
[4AAA-^>/ [4AA-	.	.
.	8ee-\ 8eee-	.
8AAA-/] 8AA-]	8ddn\L 8dddn	.
4EE-^>/ 4E-	8dd-X\ 8ddd-X	.
.	8cc\J) 8ccc	.
*Xped	*	*
=24	=24	=24
4F-X\ 4A- 4c 4f-X	8r	.
.	[4ffn^\ [4fffn	.
8E-\ 8e-	.	.
8Dn\L 8dn	8ff\] 8fff]	.
8D-X\ 8d-X	4gg^\ 4ggg	.
8C\J 8c	.	.
=25	=25	=25
8AAA-/ 8AA-	8aa-\L 8ccc 8eee- 8aaa-	.
[4EE-/ [4E-	8gg\ 8ggg	.
.	8gg-X\J 8ggg-X	.
8EE-/] 8E-]	8ff\L 8fff	.
4AA-/ 4A-	8ff-X\ 8fff-X	.
.	8ee-\J 8eee-	.
=26	=26	=26
8A-\L 8c 8e- 8a-	8r	.
!	!LO:TX:a:t=poco rit.	!
8G\ 8g	[4aa-^\ [4aaa-	.
8G-X\J 8g-X	.	.
8F\L 8f	8aa-\] 8aaa-]	.
8F-X\ 8f-X	4bb-^\ 4bbb-	.
8E-\J 8e-	.	.
!!LO:LB:g=original
=27	=27	=27
*	*8va	*
*ped	*	*
!	!LO:TX:a:t=Allegro, con forza.	!
8DD-/ 8D-	(4ccc\ 4fff 4cccc	fff
4G\ 4B- 4f	.	.
.	[8ff\ [8fff	.
4B-\ 4e- 4g	8ff\L] 8fff]	.
.	8.gg\ 8.bb- 8.eee- 8.ggg	.
8d-\ 8g 8b-	.	.
.	16bb-\Jk) 16bbb-	.
=28	=28	=28
*ped	*	*
8CC/ 8C	(4bb-\ 4ccc 4eee- 4bbb-	.
4E-\ 4A- 4c 4e-	.	.
.	[8ee-\ [8eee-	.
*ped	*	*
8BBBn/ 8BBn	8ee-\L]) 8eee-]	.
8F^^\ 8A- 8dn 8f	8.ff^\ 8.aa- 8.dddn 8.fff	.
8A-^^\ 8d 8f 8a-	.	.
.	16aa-~\Jk 16aaa-	.
=29	=29	=29
8BBB-X/ 8BB-X	4aa-\ 4ddd-X 4aaa-	.
[4F\ [4A- [4d-X [4f	.	.
.	8gg\ 8ggg	.
8F\] 8A-] 8d-] 8f]	8ff/L 8fff	.
4A-\ 4d- 4f 4a-	8ee-/ 8eee-	.
.	8dd-/J 8ddd-	.
*	*X8va	*
=30	=30	=30
8AAA-/ 8AA-	(4cc\ 4ff 4ccc	.
[4D-\ [4F [4B- [4d-	.	.
.	8b-\) 8bb-	.
8D-\] 8F] 8B-] 8d-]	8an~\L 8aan	.
4F\ 4B- 4d- 4f	8b-~\ 8bb-	.
.	8cc~\J 8ccc	.
!!LO:PB:g=original
=31	=31	=31
8GGG/ 8GG	8dd-~\L 8ff 8ddd-	.
[4D-\ [4F [4B- [4d-	8cc~\ 8ccc	.
.	8b-~\J 8bb-	.
8D-\] 8F] 8B-] 8d-]	(4a-\ 4aa-	.
4F\ 4B- 4d- 4f	.	.
.	8g\) 8gg	.
=32	=32	=32
*	*^	*
*8ba	*	*	*
!	!LO:TX:a:i:t=agitato    -    -     -     rit.	!	!
8CCC/ 8CC	((4f/ 4ff	8dd-\L	.
*X8ba	*	*	*
[4D-\ [4B- [4d-	.	8cc\	.
.	[<8en/)) [8een	8b-\J	.
8D-\] 8B-] 8d-]	8e/L] 8ee]	4a-\	.
4BB-\ 4D- 4B-	8e~</ 8ee	.	.
.	8e-X~</J 8ee-X	8g\	.
*	*v	*v	*
=33	=33	=33
*8ba	*	*
*	*^	*
!	!LO:TX:a:i:t=agitato  -      -     rit.	!	!
8CCC/ 8CC	((4f/ 4ff	2.g\	.
*X8ba	*	*	*
[4D-\ [4B- [4d-	.	.	.
.	[<8en/)) [8een	.	.
8D-\] 8B-] 8d-]	8e/L] 8ee]	.	.
4BB-\ 4D- 4B-	8e/ 8ee	.	.
.	8e-X/J 8ee-X	.	.
*	*v	*v	*
=34	=34	=34
*8ba	*	*
*	*^	*
!	!LO:TX:a:i:t=poco a poco calando	!	!
8CCC/ 8CC	(<4e-/ 4ee-	2.g-X\	.
*X8ba	*	*	*
[4BB-~\ [4G-X [4B-	.	.	.
.	8d-/ 8dd-	.	.
8BB-\] 8G-] 8B-]	8d-/L 8dd-	.	.
4GG-X~\ 4BB- 4G-	8c/ 8cc	.	.
.	8B-/J) 8b-	.	.
*	*v	*v	*
!!LO:LB:g=original
=35	=35	=35
*8ba	*	*
*	*^	*
8CCC/ 8CC	(<4e-/ 4ee-	2.g-X\	.
*X8ba	*	*	*
[4BB-~\ [4G-X [4B-	.	.	.
.	8d-/ 8dd-	.	.
8BB-\] 8G-] 8B-]	8d-/L 8dd-	.	.
4GG-X~\ 4BB- 4G-	8c/ 8cc	.	.
.	8B-/J) 8b-	.	.
*	*v	*v	*
=36	=36	=36
*8ba	*	*
8CCC/ 8CC	(>4B-/ 4d- 4a-	>
*X8ba	*	*
4DD-^>/ 4D-	.	.
.	8g-X/	.
(8G-X\L	8g-/L	]
8F\	8f/	.
8E-\J)	8e-/J)	.
*	*clefF4	*
=37	=37	=37
*	*^	*
(4.EEE-/ 4.EE-	4.F#X/	(>4D-\ 4d-	mf
.	.	[8C\) [>8c	.
4.EEEn/ 4.EEn	4.G/	8C\L] 8c]	.
.	.	(>8.C\ 8.c	.
.	.	16E-'>\Jk) 16e-	.
=38	=38	=38	=38
4.DDD-/) 4.DD-	4.An/	(>4E-\ 4e-	.
.	.	8D-\) 8d-	.
*	*clefG2	*	*
!	!LO:SIC:v:o=(8any/L	!	!
(4A-X\	(8a-/L	4.ryy	.
.	8.f/	.	.
8G\)	.	.	.
.	16d-/Jk)	.	.
*	*clefF4	*	*
!!LO:LB:g=original
=39	=39	=39	=39
(4.EEE-/ 4.EE-	4.F#X/	(>4D-\ 4d-	.
.	.	[8C\ [>8c	.
4.EEEn/ 4.EEn	4.G/	8C\L] 8c]	.
.	.	8.C\ 8.c	.
.	.	16E-'>\Jk) 16e-	.
=40	=40	=40	=40
4.FFF/) 4.FF	4.An/	(>4E-\ 4e-	.
.	.	[8D-\ [>8d-	.
(8A-X\L	4.ryy	8D-\L] 8d-]	.
8F\	.	8.d-\	.
8D-\J)	.	.	.
.	.	16f'\Jk)	.
=41	=41	=41	=41
*^	*	*	*
4.GGG-X/ 4.GG-X	4.ryy	4.B-/	(>4F\ 4f	.
.	.	.	[8En\ [>8en	.
8G/L	4.GGGn:\ 4.GGn:	4.ryy	8E\L] 8e]	.
8En/	.	.	8.E\ 8.e	.
8C/J	.	.	.	.
.	.	.	16G'\Jk) 16g	.
*v	*v	*	*	*
*	*clefG2	*	*
=42	=42	=42	=42
4.AAA-/ 4.AA-	(4G/ 4g	4.c\	.
.	[<8F/ [8f	.	.
8c\L	8F/L] 8f]	4.ryy	.
8A-\	8.f/	.	.
8F\J	.	.	.
.	16a-/Jk)	.	.
!!LO:LB:g=original
=43	=43	=43	=43
*^	*	*	*
2.BB--/	(4.BBB--/ 4.BB--y	(4A-/ 4a-	2.d-\	.
.	.	[<8G/ [8g	.	.
!	!	!	!	!LO:DY:b=2
.	4.F-X\)	8G/L] 8g]	.	sfz
.	.	8.G/ 8.g	.	.
.	.	16B-/Jk) 16b-	.	.
=44	=44	=44	=44	=44
2.DD-/ 2.AA-	(4.AA-/	(4B-/ 4b-	4.f-X^/	.
.	.	[<8A-/ [8a-	.	.
.	4.F-X\)	16%3A-/L] 16%3a-]	4e-^/	.
.	.	16%3A-~</J 16%3a-	.	.
.	.	.	8d-^/)	.
=45	=45	=45	=45	=45
2.FF-X/ 2.BB--	(4.BB--/	(4A-/ 4a-	2.d-\	.
.	.	[<8G/ [8g	.	.
.	4.F-X\)	8G/L] 8g]	.	.
.	.	8.G/ 8.g	.	.
.	.	16B-/Jk) 16b-	.	.
=46	=46	=46	=46	=46
2.DD-/ 2.AA-	(>4.AA-\	(4B-/ 4b-	4.f-X^/	.
.	.	[<8A-/ [8a-	.	.
.	4.F-X\)	16%3A-/L] 16%3a-]	4e-^/	.
.	.	16%3B-/J 16%3b-	.	.
.	.	.	8d-^/)	.
*	*	*v	*v	*
!!LO:LB:g=original
=47	=47	=47	=47
4c:~/	2.FF:\ 2.C:	8r	f
.	.	(>[4a-/	.
8Bn~/	.	.	.
4B-X~/	.	8a-/]	.
.	.	[>4b-/	.
8An~/	.	.	.
=48	=48	=48	=48
*	*	*^	*
!	!	!LO:TUP:a:r=4.	!	!
(4A-X:/	2.FF:\ 2.D-:	16%3b-/L]	2.en\	.
.	.	16%3cc/	.	.
8G/)	.	.	.	.
!	!	!LO:TUP:a:r=4.	!	!
8G~</L	.	16%3ddn/	.	.
8A-~</	.	.	.	.
.	.	16%3een/J	.	.
8B-~</J	.	.	.	.
=49	=49	=49	=49	=49
!	!	!LO:TUP:a:r=4.	!	!
4c:~/	2.FF:\ 2.C:	16%3f/L 16%3ff	4.a-\	.
.	.	[<16%3en/ [16%3een	.	.
8Bn~/	.	.	.	.
!	!	!LO:TUP:a:r=4.	!	!
4B-X~/	.	16%3e/] 16%3ee]	4.g\	.
.	.	16%3e-X/J 16%3ee-X	.	.
8An~/	.	.	.	.
=50	=50	=50	=50	=50
(4A-X:/	2.FF:\ 2.D-:	[<4.d-/) [4.dd-	16%3f\L	.
.	.	.	[16%3en\J	.
8G/)	.	.	.	.
8G/L	.	16%3d-/L] 16%3dd-]	4e\]	.
8A-/	.	.	.	.
.	.	16%3c/J 16%3cc	.	.
8B-/J	.	.	8ryy	.
*v	*v	*	*	*
!!LO:LB:g=original
=51	=51	=51	=51
*Xtuplet	*	*	*
!LO:N:vis=16r	!LO:TX:a:i:t=accelerando	!	!
64%3r	4.c^^/	4.ryy	.
!	!	!	!LO:HP:b=2
(64%3FF\LL	.	.	<
64%3C\	.	.	.
64%3F\	.	.	.
64%3G\	.	.	.
64%3A-\	.	.	.
64%3B-\	.	.	.
64%3c\JJ	.	.	[
!	!LO:N:vis=16.	!	!
4.d-\)	(<16f/LL	4.f^^\	.
.	16a-/	.	.
.	16cc/	.	.
.	16ff/	.	.
.	16aa-/	.	.
.	16ccc/JJ)	.	.
=52	=52	=52	=52
*ped	*	*	*
8r	8r	2.f-X^^\	.
N(32D-\LLL	8r	.	.
32A-\	.	.	.
32B-\	.	.	.
32d-\JJJ	.	.	.
8ryy	32a-/LLL	.	.
.	32b-/	.	.
.	32dd-/	.	.
.	32ff-X/JJJN)	.	.
!	!LO:TX:a:i:t=poco rit.	!	!
8a-`\L	8aa-`\L	.	ff
8a-`\	8aa-`\	.	.
*Xped	*	*	*
8a-`\J	8aa-`\J	.	.
!!LO:PB:g=original
=53	=53	=53	=53
!LO:N:vis=16r	!LO:TX:a:i:t=accelerando	!	!
64%3r	4.c^^/	4.ryy	.
!	!	!	!LO:HP:b=2
(64%3FF\LL	.	.	<
64%3C\	.	.	.
64%3F\	.	.	.
64%3G\	.	.	.
64%3A-\	.	.	.
64%3B-\	.	.	.
64%3c\JJ	.	.	[
!	!LO:N:vis=16.	!	!
4.d-\)	(<16fn/LL	4.f^^\	.
.	16a-/	.	.
.	16cc/	.	.
.	16ff/	.	.
.	16aa-/	.	.
.	16ccc/JJ)	.	.
=54	=54	=54	=54
8r	8r	2.f-X^^\	.
N(32D-\LLL	8r	.	.
32A-\	.	.	.
32B-\	.	.	.
32d-\JJJ	.	.	.
8ryy	32a-/LLL	.	.
.	32b-/	.	.
.	32dd-/	.	.
.	32ff-X/JJJN)	.	.
!	!LO:TX:a:i:t=poco rit.	!	!
8a-`\L	8aa-`\L	.	.
8a-`\	8aa-`\	.	.
8a-`\J	8aa-`\J	.	.
*	*v	*v	*
=55	=55	=55
!	!LO:TX:b:t=marcato	!
!	!LO:TX:a:i:t=con fuoco	!
4r	8dd-^^\L 8ddd-	.
.	8dd-^^\ 8ddd-	.
8r	8dd-^^\J 8ddd-	.
8EEEn/L 8EEn	4r	.
8EEE/ 8EE	.	.
8EEE/J 8EE	8r	.
*	*clefF4	*
!!LO:LB:g=original
=56	=56	=56
*	*^	*
2.FFF/ 2.FF	(16Dn\LL	4dn^>/	.
.	16B-\	.	.
.	16dny\	.	.
*	*clefG2	*	*
.	16d-\	.	.
.	16b-\	8d-<^\	.
.	16ddn\JJ	.	.
.	16d-\LL	4c<^\	.
.	16b-\	.	.
.	16dd\	.	.
.	16dd\	.	.
.	16bb-\	8c-X<^\	.
.	16dddn\JJ)	.	.
*	*v	*v	*
=57	=57	=57
4B-X\	8een^\L 8eeen	.
.	8ee^\ 8eee	.
8r	8ee^\J 8eee	.
8GGG/L 8GG	4r	.
8GGG/ 8GG	.	.
8GGG/J 8GG	8r	.
=58	=58	=58
*	*^	*
2.AAA-/ 2.AA-	(16F/LL	4f\	.
.	16d-/	.	.
.	16f/	.	.
.	16f/	.	.
.	16dd-/	8en<\	.
.	16ff/JJ	.	.
.	16f\LL	4e-X<\	.
.	16dd-\	.	.
.	16ff\	.	.
.	16ff\	.	.
.	16ddd-\	8e--<\	.
.	16fff\JJ)	.	.
*	*v	*v	*
!!LO:LB:g=original
=59	=59	=59
4d-\	8gg^\L 8ggg	.
.	8gg^\ 8ggg	.
8r	8gg^\J 8ggg	.
8BBB-/L 8BB-	4r	.
8BBB-/ 8BB-	.	.
8BBB-/J 8BB-	8r	.
=60	=60	=60
*	*8va	*
(16BBBn/LL	(4bb-Z\ 4ddd- 4fff 4bbb-Z	>
16FF/	.	.
16AA-/	.	.
16Dn/	.	.
16F/	[8aa-\) [8aaa-	]
16A-/JJ	.	.
4dn\)	8aa-\L] 8aaa-]	.
.	8een~\ 8eeen	.
8r	8ff~\J 8fff	.
=61	=61	=61
(16CC/LL	(4gg\ 4ccc 4ggg	>
16FF/	.	.
16AA-/	.	.
16C/	.	.
16F/	[8ff\) [8fff	]
16A-/JJ	.	.
4c\)	8ff/L] 8fff]	.
.	8een~/ 8eeen	.
8r	8ff~/J 8fff	.
=62	=62	=62
(16DDn/LL	(4bb-X\ 4dddn 4fff 4bbb-X	>
16AA-/	.	.
16BBn/	.	.
16F/	.	.
16A-/	[8aa-\) [8aaa-	]
16Bn/JJ	.	.
4f\)	8aa-\L] 8aaa-]	.
.	8een~\ 8eeen	.
8r	8ff~\J 8fff	.
!!LO:LB:g=original
=63	=63	=63
(16EE-/LL	(>4ff/ 4aa- 4ccc 4fff	>
16AA-/	.	.
16C/	.	.
16E-/	.	.
16A-/	[8ee-/) [8eee-	]
16c/JJ	.	.
4e-\)	8ee-/L] 8eee-]	.
.	8bn~/ 8bbn	.
8r	8cc~/J 8ccc	.
*	*X8va	*
=64	=64	=64
*	*^	*
(16FF-X/LL	2.aa-/	(>[4.dd-\ [>4.ddd-	.
16AA-/	.	.	.
16D-/	.	.	.
16F-X/	.	.	.
16A-/	.	.	.
16d-/JJ	.	.	.
4f-X\)	.	4dd-\] 4ddd-]	.
8r	.	8ee-\) 8eee-	.
*	*v	*v	*
=65	=65	=65
(16FFn/LL	4.cc\ 4.aa- 4.ccc	.
16C/	.	.
16Fn/	.	.
16G/	.	.
16A-/	.	.
16B-/JJ	.	.
4c\)	8a-\L 8aa-	.
.	8a-\ 8aa-	.
8r	8a-\J 8aa-	.
=66	=66	=66
*	*^	*
(16FF-X/LL	2.a-/	(>[4.d-/ [>4.dd-	.
16AA-/	.	.	.
16D-/	.	.	.
16F-X/	.	.	.
16A-/	.	.	.
16d-/JJ	.	.	.
4f-X\)	.	4d-/] 4dd-]	.
8r	.	8e-/) 8ee-	.
!!LO:LB:g=original
=67	=67	=67	=67
!	!LO:TX:a:i:t=rit. poco a poco	!	!LO:HP:a:t=dim. poco a poco
(16FFn/LL	2.cc/	4.c\ 4.a-	>
16C/	.	.	.
16Fn/	.	.	.
16G/	.	.	.
16A-/	.	.	.
16B-/JJ	.	.	.
4c\)	.	8a-\L	.
.	.	8a-\	.
8r	.	8a-\J	.
=68	=68	=68	=68
(16FF-X/LL	2.cc/	4.c\ 4.a-	.
16C/	.	.	.
16F-X/	.	.	.
16G-X/	.	.	.
16A-/	.	.	.
16B-/JJ	.	.	.
4c\)	.	8a-\L	.
.	.	8a-\	.
8r	.	8a-\J	.
*	*v	*v	*
=69	=69	=69
*MM72	*MM72	*
!	!LO:TX:a:B:t=Andantino. [quarter]=72.	!
!LO:TX:b:i:t=col Pedale	!LO:TX:a:i:t=dolcissimo	!
4E-\ 4A- 4e-	(>4c/ 4a- 4cc	p
[8E-\ [8A- [8e-	[8c/ [8a- [8cc	.
8E-\L] 8A-] 8e-]	8c/L] 8a-] 8cc]	.
8E-\ 8A- 8e-	8c/ 8a- 8cc	.
.	8qee-/	.
8E-\J 8A- 8f	8d-/J 8a- 8dd-	.
=70	=70	=70
4E-\ 4A- 4e-	4c/ 4a- 4cc	.
[8E-\ [8A- [8d-	[8B-/ [>8f [8b-	.
8E-\L] 8A-] 8d-]	8B-/L] 8f] 8b-]	.
8E-\ 8A- 8e-	8c/ 8a- 8cc	.
8E-:\J 8A-: 8f:	8d-/J 8a- 8dd-	.
!!LO:LB:g=original
=71	=71	=71
4E-:\ 4c: 4a-:	4e-/ 4cc 4ee-	.
[8E-\ [8A- [8e-	[8c/ [>8a- [8cc	.
8E-\L] 8A-] 8e-]	8c/L] 8a-] 8cc]	.
8E-\ 8A- 8e-	8c/ 8a- 8cc	.
.	8qee-/	.
8E-\J 8A- 8f	8d-/J 8a- 8dd-	.
=72	=72	=72
4E-\ 4A- 4e-	4c/ 4a- 4cc	.
[8E-\ [8A- [8d-	[8B-/ [>8f [8b-	.
8E-\L] 8A-] 8d-]	8B-/L] 8f] 8b-]	.
8E-\ 8A- 8e-	8c/ 8a- 8cc	.
8E-\J 8A- 8f	8d-/J) 8a- 8dd-	.
=73	=73	=73
!	!LO:TX:a:i:t=accel.	!
4E-\ 4A- 4g-X	4e-/ 4cc 4ee-	<
[8E-\ [8A- [8Bn [8f	(>[8a-\ [8bn [8ddn [8aa-	[
!	!LO:TX:a:i:t=a tempo	!
8E-\L] 8A-] 8B] 8f]	8a-\L] 8b] 8dd] 8aa-]	.
8E-\ 8A- 8B 8f	8a-\ 8b 8dd 8aa-	>
8E-\J 8A- 8c 8g-	8a-\J) 8cc 8ee-	]
=74	=74	=74
!	!LO:TX:a:i:t=accel.	!
4E-\ 4A- 4c 4g-X	4a-\ 4cc 4ee-	<
[8E-\ [8A- [8Bn [8f	(>[8a-\ [8bn [8ddn [8aa-	[
!	!LO:TX:a:i:t=a tempo	!
8E-\L] 8A-] 8B] 8f]	8a-\L] 8b] 8dd] 8aa-]	.
8E-\ 8A- 8B 8f	8a-\ 8b 8dd 8aa-	>
8E-\J 8A- 8c 8g-	8a-\J) 8cc 8ee-	]
!!LO:PB:g=original
=75	=75	=75
!	!LO:TX:a:i:t=poco a poco accelerando	!
4G-X\ 4A- 4c 4g-X	4e-/ 4a- 4cc 4ee-	mf
[8F\ [8A- [8c [8f	[8f/ [8cc [8ee- [8ff	<
8F\L] 8A-] 8c] 8f]	8f/L] 8cc] 8ee-] 8ff]	.
8F\ 8A- 8c 8f	8f/ 8cc 8ee- 8ff	.
8E-\J 8A- 8c 8e-	8g-X/J 8cc 8ee- 8gg-X	[
=76	=76	=76
*M3/4	*M3/4	*
4G-X\ 4A- 4c 4g-X	4e-~>/ 4a- 4cc 4ee-	<
4F\ 4A- 4c 4f	4f~>/ 4cc 4ee- 4ff	.
8F\L 8A- 8c 8f	8f/L 8cc 8ee- 8ff	.
8E-\J 8A- 8c 8e-	8g-X/J 8cc 8ee- 8gg-X	[
=77	=77	=77
*M6/8	*M6/8	*
!	!	!LO:HP:a:t=crescendo molto
4G-X\ 4A- 4c 4g-X	4e-/ 4a- 4cc 4ee-	pp <
[8F\ [8A- [8c [8f	[8f/ [8cc [8ee- [8ff	.
8F\L] 8A-] 8c] 8f]	8f/L] 8cc] 8ee-] 8ff]	.
8F\ 8A- 8c 8f	8f/ 8cc 8ee- 8ff	.
8E-\J 8A- 8c 8e-	8g-X/J 8cc 8ee- 8gg-X	.
=78	=78	=78
*M3/4	*M3/4	*
4G-X\ 4A- 4c 4g-X	4e-/ 4a- 4cc 4ee-	.
4F\ 4A- 4c 4f	4f/ 4cc 4ee- 4ff	[
8F\L 8A- 8c 8f	8f/L 8cc 8ee- 8ff	.
8E-\J 8A- 8c 8e-	8g-X/J 8cc 8ee- 8gg-X	.
!!LO:LB:g=original
=79	=79	=79
*M6/8	*M6/8	*
*ped	*	*
4DD-/ 4D-	(4a-\ 4cc-X 4ee- 4aa-	mf
[8G-X\ [8c-X [8e- [8g-X	[8b-\ [8ee- [8bb-	.
8G-\L] 8c-] 8e-] 8g-]	8b-\L] 8ee-] 8bb-]	.
8G-\ 8c- 8e- 8g-	8b-\ 8ee- 8bb-	.
8F\J 8c- 8e- 8f	8a-\J 8ee- 8aa-	.
=80	=80	=80
4F~\ 4c-X 4e- 4f	4a-\ 4ee- 4aa-	.
[8E-~\ [8F [8A- [8e-	[8dd-\ [8ff [8aa- [8ddd-	.
4E-\] 4F_ 4A-_ 4e-]	8dd-\L] 8ff] 8aa-] 8ddd-]	.
.	8dd-\ 8ddd-	.
8D-~\ 8F] 8A-] 8d-	8a-\J) 8aa-	.
*Xped	*	*
=81	=81	=81
*ped	*	*
4DD-/ 4D-	4a-\ 4cc-X 4ee- 4aa-	.
[8G-X\ [8c-X [8e- [8g-X	[8b-\ [8ee- [8bb-	.
8G-\L] 8c-] 8e-] 8g-]	8b-\L] 8ee-] 8bb-]	.
8G-\ 8c- 8e- 8g-	8b-\ 8ee- 8bb-	.
8F\J 8c- 8e- 8f	8a-\J 8ee- 8aa-	.
=82	=82	=82
4F~\ 4c-X 4e- 4f	(4a-\ 4ee- 4aa-	.
[8E-~\ [8F [8A- [8e-	[8dd-\ [8ff [8aa- [8ddd-	.
4E-\] 4F_ 4A-_ 4e-]	8dd-\L] 8ff] 8aa-] 8ddd-]	.
.	8dd-\ 8ddd-	.
8D-~\ 8F] 8A-] 8d-	8dd-\J) 8ddd-	.
*Xped	*	*
!!LO:LB:g=original
=83	=83	=83
*ped	*	*
4GGG-X/ 4GG-X	(>4dd-\ 4gg-X 4bb- 4ddd-	.
[8F-X\ [8G-X [8B- [8g-X	[8ee-\ [8gg- [8bb- [8eee-	.
8F-\L] 8G-] 8B-] 8g-]	8ee-\L] 8gg-] 8bb-] 8eee-]	.
8F-\ 8G- 8B- 8g-	8ee-\ 8gg- 8bb- 8eee-	.
8F-\J 8G- 8B- 8f-X	8dd-\J 8gg- 8bb- 8ddd-	.
=84	=84	=84
*M3/4	*	*
!	!LO:TX:a:t=P:problem= zmiana metrum jedynie w lewej ręce	!
4F-X\ 4G-X 4B- 4d- 4f-X	4dd-\ 4gg-X 4bb- 4ddd-	.
4E-\ 4G- 4B- 4e-	[8gg-\ [8bb- [8ddd- [8ggg-X	.
.	8gg-\L] 8bb-] 8ddd-] 8ggg-]	.
4D-\ 4G- 4B- 4d-	8gg-\ 8bb- 8ddd- 8ggg-	.
*Xped	*	*
.	8dd-\J) 8gg- 8bb- 8ddd-	.
=85	=85	=85
*M6/8	*	*
4GGG-X/ 4GG-X	(4dd-\ 4gg-X 4bb- 4ddd-	.
[8F-X\ [8G-X [8B- [8g-X	[8ee-\ [8gg- [8bb- [8eee-	.
8F-\L] 8G-] 8B-] 8g-]	8ee-\L] 8gg-] 8bb-] 8eee-]	.
8F-\ 8G- 8B- 8g-	8ee-\ 8gg- 8bb- 8eee-	.
8F-\J 8G- 8B- 8f-X	8dd-\J 8gg- 8bb- 8ddd-	.
=86	=86	=86
*M3/4	*	*
4F-X\ 4G-X 4B- 4f-X	4dd-\ 4gg-X 4bb- 4ddd-	.
!	!LO:TX:b:i:t=poco rit.	!
4E-\ 4G- 4B- 4e-	[8gg-\ [8bb- [8ddd- [8ggg-X	.
.	8gg-\L] 8bb-] 8ddd-] 8ggg-]	.
4E--\ 4G- 4B- 4e--	8gg-\ 8bb- 8ddd- 8ggg-	.
.	8gg-\J) 8bb- 8ddd- 8ggg-	.
!!LO:LB:g=original
=87	=87	=87
*ped	*	*
!	!	!LO:HP:t=cresc. poco à poco:ext=s
4GGG-X/ 4GG-X	4gg-X\ 4bb-- 4ddd- 4ggg-X	<
4D-\ 4G-X 4B-- 4d-	[8gg-\ [8bb-- [8ddd- [8ggg-	.
.	8gg-\L] 8bb--] 8ddd-] 8ggg-]	.
4G-\ 4B-- 4d- 4g-X	8gg-\ 8bb-- 8ddd- 8ggg-	.
*Xped	*	*
.	8gg-\J 8bb-- 8ddd- 8ggg-	.
=88	=88	=88
*ped	*	*
4FFFn/ 4FFn	4ff\ 4aan 4dddn 4fff	.
4Dn\ 4F 4An 4dn	[8ff\ [8aa [8ddd [8fff	.
.	8ff\L] 8aa] 8ddd] 8fff]	.
4F\ 4A 4d 4f	8ff\ 8aa 8ddd 8fff	.
*Xped	*	*
.	8ff\J 8aa 8ddd 8fff	[
=89	=89	=89
*ped	*	*
4AAAn/ 4AAn	4een\ 4aan 4ccc 4eeen	.
!	!LO:TX:b:i:t=poco a poco rit.	!
4C\ 4En 4An 4cn	[8ee\ [8aa [8ccc [8eee	.
.	8ee\L] 8aa] 8ccc] 8eee]	.
4E\ 4A 4c 4en	8ee\ 8aa 8ccc 8eee	.
*Xped	*	*
.	8ee\J 8aa 8ccc 8eee	.
=90	=90	=90
*ped	*	*
4CC/ 4C	4ee-X\ 4gg 4ccc 4eee-X	.
4C\ 4E-X 4G 4c	8ee-\ 8gg 8ccc 8eee-	.
.	8ee-\L 8gg 8ccc 8eee-	.
4E-\ 4G 4c 4e-	8ee-\ 8gg 8ccc 8eee-	.
.	8ee-\J 8gg 8ccc 8eee-	.
*Xped	*	*
!!LO:LB:g=original
=91	=91	=91
*M6/8	*	*
*ped	*	*
!	!LO:TX:b:t=marcato	!
!	!LO:TX:a:i:t=più mosso	!
!	!LO:TX:a:t=P:problem=zmiana metrum jedynie w lewej ręce	!
4EEE-/ 4EE-	4ee-\ 4gg 4bb- 4eee-	f
*clefG2	*	*
8d-/ 8e- 8g	[8b-\ [8ee- [8bb-	.
8d-/L 8e- 8g	8b-\L] 8ee-] 8bb-]	.
8.d-/ 8.e- 8.g	8.b-\ 8.ee- 8.bb-	.
16d-/Jk 16e- 16a-	16cc\Jk 16ee- 16ccc	.
=92	=92	=92
4d-/ 4e- 4a-	4cc\ 4ee- 4ccc	.
8d-/ 8e- 8g	[8b-\ [8ee- [8bb-	.
*clefF4	*	*
!	!	!LO:DY:b=2
8e-\L	8b-\L] 8ee-] 8bb-]	sfz
!	!	!LO:DY:b=2
8E-\	8.b-\ 8.bb-	sfz
!	!	!LO:DY:b=2
8E-\J	.	sfz
*Xped	*	*
.	16ee-\Jk 16eee-	.
=93	=93	=93
*ped	*	*
4EEE-/ 4EE-	4ee-\ 4gg 4bb- 4eee-	.
*clefG2	*	*
8d-/ 8e- 8g	[8b-\ [8ee- [8bb-	.
8d-/L 8e- 8g	8b-\L] 8ee-] 8bb-]	.
8.d-/ 8.e- 8.g	8.b-\ 8.ee- 8.bb-	.
16d-/Jk 16e- 16a-	16cc\Jk 16ee- 16ccc	.
=94	=94	=94
4d-/ 4e- 4a-	4cc\ 4ee- 4ccc	.
8d-/ 8e- 8g	[8b-\ [8ee- [8bb-	.
*clefF4	*	*
!	!	!LO:DY:b=2
8e-\L	8b-\L] 8ee-] 8bb-]	sfz
!	!	!LO:DY:b=2
8E-\	8.b-\ 8.bb-	sfz
!	!	!LO:DY:b=2
8E-\J	.	sfz
.	16ee-\Jk 16eee-	.
!!LO:LB:g=original
=95	=95	=95
*ped	*	*
4EEE-/ 4EE-	4ee-\ 4aa- 4ccc 4eee-	.
[8E-\ [8A- [8Bn [8f	[8ff\ [8aa- [8bbn [8fff	.
8E-\L] 8A-] 8B] 8f]	8ff\L] 8aa-] 8bb] 8fff]	.
8.E-\ 8.A- 8.B 8.f	8.ff\ 8.aa- 8.bb 8.fff	.
*Xped	*	*
16E-\Jk 16A- 16c 16g-X	16ee-\Jk 16aa- 16ccc 16eee-	.
=96	=96	=96
*M3/4	*	*
!	!LO:TX:a:t=P:problem=zmiana metrum jedynie w lewej ręce	!
!	!	!LO:HP:t=crescendo possibile_:ext=s:ext=ud
4E-\ 4A- 4c 4g-X	4ee-\ 4aa- 4ccc 4eee-	<
4.Bn^<\ 4.dn 4.a-	[8aa-\ [8bbn [8dddn [8aaa-	.
.	8aa-\L] 8bb] 8ddd] 8aaa-]	.
.	8.aa-\ 8.bb 8.ddd 8.aaa-	.
8c^<\ 8e- 8an	.	.
.	16ee-\Jk 16gg-X 16ccc 16eee-	.
*clefG2	*	*
=97	=97	=97
4d-X^>/ 4g 4b-	4ee-\ 4ggn 4bb- 4eee-	.
4.dn^>/ 4.f 4.bn	[8aa-\ [8bbn [8dddn [8aaa-	.
.	8aa-\L] 8bb] 8ddd] 8aaa-]	.
.	8.aa-\ 8.bb 8.ddd 8.aaa-	.
8e-^>/ 8g-X 8cc	.	.
.	16ee-\Jk 16aa- 16ccc 16eee-	.
=98	=98	=98
4e-/ 4g-X 4cc	4ee-\ 4aa- 4ccc 4eee-	.
*	*8va	*
4e-^>/ 4g- 4ddn	[8ccc\ [8aaa- [8cccc	.
.	8ccc\L] 8aaa-] 8cccc]	.
4g-X^>\ 4cc 4ee-	8ccc^\ 8aaa- 8cccc	.
.	8ccc^\J 8aaa- 8cccc	[
*clefF4	*	*
!!LO:PB:g=original
=99	=99	=99
*M6/8	*	*
*ped	*	*
!	!LO:TX:a:t=P:problem=zmiana metrum tylko w lewej ręce	!
!	!LO:TX:a:t=Grandioso.	!
8DD-/ 8D-	4ccc\ 4fff 4cccc	fff
4Gn\ 4B- 4f	.	.
*Xped	*	*
.	[8ff\ [8fff	.
*ped	*	*
4B-\ 4e- 4g	8ff\L] 8fff]	.
.	8.gg\ 8.bb- 8.eee- 8.ggg	.
8d-\ 8g 8b-	.	.
*Xped	*	*
.	16bb-\Jk 16bbb-	.
=100	=100	=100
*ped	*	*
8CC/ 8C	4bb-\ 4ccc 4eee- 4bbb-	.
4E-\ 4A- 4c 4e-	.	.
*Xped	*	*
.	[8ee-/ [8eee-	.
*ped	*	*
8BBBn/ 8BBn	8ee-\L] 8eee-]	.
8F\ 8A- 8dn 8f	8.ff\ 8.aa- 8.dddn 8.fff	.
8A-\ 8d 8f 8a-	.	.
*Xped	*	*
.	16aa-\Jk 16aaa-	.
=101	=101	=101
8BBB-X/ 8BB-X	(4aa-\ 4ddd-X 4aaa-	.
[4F\ [4A- [4d-X [4f	.	.
.	8gg\) 8ggg	.
8F\] 8A-] 8d-] 8f]	8ff^>/L 8fff	.
4A-\ 4d- 4f 4a-	8ee-^>/ 8eee-	.
.	8dd-^>/J 8ddd-	.
*	*X8va	*
=102	=102	=102
8AAA-/ 8AA-	(4cc\ 4ff 4ccc	.
[4D-\ [4F [4B- [4d-	.	.
!	!LO:TX:a:i:t=accelerando poco a poco	!
.	8b-\) 8bb-	.
8D-\] 8F] 8B-] 8d-]	8an~\L 8aan	.
4F\ 4B- 4d- 4f	8b-~\ 8bb-	.
.	8cc~\J 8ccc	.
=103	=103	=103
8GGG/ 8GG	8dd-^\L 8ff 8ddd-	.
[4D-\ [4F [4B- [4d-	8cc^\ 8ccc	.
.	8b-^\J 8bb-	.
8D-\] 8F] 8B-] 8d-]	8a-^\L 8aa-	.
4F\ 4B- 4d- 4f	8g^\ 8gg	.
.	8g-X^\J 8gg-X	.
!!LO:LB:g=original
=104	=104	=104
*8ba	*	*
8CCC/ 8CC	(4f\ 4b- 4ff	.
*X8ba	*	*
[4D-\ [4B- [4d-	.	.
.	[8en/) [8een	.
8D-\] 8B-] 8d-]	8e/L] 8ee]	.
4BB-\ 4D- 4B-	8e-X^/ 8ee-X	.
.	8e--^/J 8ee--	.
=105	=105	=105
*8ba	*	*
8CCC/ 8CC	(4f\ 4b- 4ff	.
*X8ba	*	*
[4D-\ [4B- [4d-	.	.
.	[8en/) [8een	.
8D-\] 8B-] 8d-]	8e/L] 8ee]	.
4BB-\ 4D- 4B-	8e-X^/ 8ee-X	.
.	8e--^/J 8ee--	.
=106	=106	=106
*8ba	*	*
8CCC/ 8CC	(4d-/ 4g-X 4dd-	.
*X8ba	*	*
[4BB-\ [4G-X [4B-	.	.
.	[8c/) [8cc	.
8BB-\] 8G-] 8B-]	8c/L] 8cc]	.
4GG-X/ 4BB- 4G-	8c-X^/ 8cc-X	.
.	8B-^/J 8b-	.
=107	=107	=107
*8ba	*	*
8CCC/ 8CC	(4d-/ 4g-X 4dd-	.
*X8ba	*	*
[4BB-\ [4G-X [4B-	.	.
.	[8c/) [8cc	.
8BB-\] 8G-] 8B-]	8c/L] 8cc]	.
4GG-X/ 4BB- 4G-	8c-X^/ 8cc-X	.
.	8B-^/J 8b-	.
!!LO:LB:g=original
=108	=108	=108
*8ba	*	*
(4.AAAAn/ 4.EEE- 4.GGG-X 4.AAAn	8An/L 8c 8g-X 8an	>
.	8G-X/ 8g-X	.
.	8F/J 8f	.
4.BBBB-/ 4.BBB-	8F-X/L 8f-X	.
.	8E-/ 8e-	.
.	8Dn/J 8dn	.
*	*clefF4	*
=109	=109	=109
4.BBBBn/ 4.FFF 4.AAA-X 4.BBBn	(4D-X\ 4F 4A- 4d-X	.
.	[8C\) [8F [8A- [8c	.
4.CCC/) 4.CC	4.C\] 4.F] 4.A-] 4.c]	]
=110	=110	=110
*	*^	*
4.DDD-/ 4.DD-	(4c/	2.F-X\	mf >
.	[8B-/	.	]
*X8ba	*	*	*
4.AA-\ 4.D- 4.A-	8B-/L]	.	<
.	8B-/	.	.
.	8c/J)	.	[
=111	=111	=111	=111
*^	*	*	*
*	*	*	*	*^
(>4C/	2.DD-\	(8B-/	2.F-X\	>	.
!	!	!	!	!	!LO:HP:b=2
.	.	4A-/	.	.	>
[8BB-/	.	.	.	.	]
!	!	!	!	!	!LO:HP:b=2
8BB-/L]	.	4.G/)	.	]	<
8BB-/	.	.	.	.	.
8C/J)	.	.	.	.	[
*	*	*	*	*v	*v
*v	*v	*	*	*
*	*v	*v	*
=112||	=112||	=112||
*k[]	*k[]	*
*Xtuplet	*	*
!LO:N:vis=32	!	!
(64%3DDD/LL	(4BBn\ 4F 4B-X	p >
64%3FFF/	.	.
64%3AAA-X/	.	.
64%3BBB/	.	.
64%3DD/	.	.
64%3FF/	.	.
.	8BB'\) 8F 8A-X	]
64%3AA-X/	.	.
64%3BB/JJ	.	.
4EE-X/ 4E-X	8r	.
.	(8En\L	.
8DD/) 8D	8F\J	.
!!LO:LB:g=original
=113	=113	=113
8r	4E-X\ 4G-X 4d-X	.
8BBB-X/L 8BB-X	.	.
[8AAA/J [8AA	8E-\) 8G- 8c	.
8AAA/L] 8AA]	(16D\LL	.
.	16E-\J	.
!	!LO:TUP:a:r=8	!
8GGG-X/ 8GG-X	24G-\L	.
.	24c\	.
.	24d-\J	.
*	*clefG2	*
!	!LO:TUP:a:r=8	!
8EEE-X/J 8EE-X	24e-X\L	.
.	24g-X\	.
.	24cc\JJ)	.
*	*clefF4	*
=114	=114	=114
!LO:N:vis=32	!	!
(64%3DDD/LL	(4BBn\ 4F 4B-X	.
64%3FFF/	.	.
64%3AAA-X/	.	.
64%3BBB/	.	.
64%3DD/	.	.
64%3FF/	.	.
.	8BB'\) 8F 8A-X	.
64%3AA-X/	.	.
64%3BB/JJ	.	.
4EE-X/ 4E-X	8r	.
.	(8En\L	.
8DD/) 8D	8F\J	.
=115	=115	=115
8r	4E-X\ 4G-X 4d-X	>
8BBB-X^/L 8BB-X	.	.
8AAA^/J 8AA	8E-'\) 8G- 8c	]
8AAA-X^/L 8AA-X	(16D\LL	<
.	16E-\J	.
!	!LO:TUP:a:r=8	!
8GGG-X^/ 8GG-X	24G-\L	.
.	24c\	.
.	24d-\J	.
*	*clefG2	*
!	!LO:TUP:a:r=8	!
8EEE-X^/J 8EE-X	24e-X\L	.
.	24g-X\	.
.	24cc\JJ)	[
!!LO:LB:g=original
=116	=116	=116
!LO:N:vis=32	!	!
(64%3DDD/LL	(>4e-X/ 4a-X 4b 4ee-X	>
64%3FFF/	.	.
64%3AAA-X/	.	.
64%3BBB/	.	.
64%3DD/	.	.
64%3FF/	.	.
.	[8d/) [8a- [8b [8dd	]
64%3AA-X/	.	.
64%3BB/JJ)	.	.
!	!	!LO:HP:b=2
(>4GG-X/ 4G-X	8d/L] 8a-] 8b] 8dd]	>
.	8Gn/ 8gn	.
8FF/) 8F	8A-X/J 8a-X	]
=117	=117	=117
*	*	*^
!	!	!LO:HP:a:t=cre-scen-do:ext=ud	!
8r	[4A-X/ 4B 4g-X	<	.
8EE-X^/L 8E-X	.	.	.
8DD^/J 8D	8A-/] 8B 8f	.	.
8DD-X^/L 8D-X	(16Gn/LL	.	<
.	16A-/J	.	.
!	!LO:TUP:b:r=8	!	!
8CC^/ 8C	24d/L	.	.
.	24f/	.	.
.	24gn/J	.	.
!	!LO:TUP:b:r=8	!	!
8BBB^/J 8BB	24a-X/L	.	.
.	24b/	.	.
.	24ff/JJ)	.	[[
=118	=118	=118	=118
*tuplet	*	*	*
(16BBB-X/LL	(>4a-X\ 4dd-X 4ee 4aa-X	[	>
16DD-X/J	.	.	.
!LO:TUP:b:r=8	!	!	!
24EE/L	.	.	.
24GG/	.	.	.
24BB-X/J	.	.	.
!LO:TUP:b:r=8	!LO:TX:a:i:t=poco a	!	!
24D/L	[8g\) [8dd- [8ee [8gg	.	]
24E/	.	.	.
24G/JJ)	.	.	.
(4C-X\ 4c-X	8g/L] 8dd-] 8ee] 8gg]	.	.
.	8d#X/ 8dd#X	.	.
8BB-X\) 8B-X	8e/J 8ee	.	.
*	*	*v	*v
!!LO:LB:g=original
=119	=119	=119
!	!LO:TX:a:i:t=poco accelerando	!LO:HP:b=2
(16BBB-X/LL	(4a-X\ 4dd-X 4ee 4aa-X	<
16DD-X/J	.	.
!LO:TUP:b:r=8	!	!
24EE/L	.	.
24GG/	.	.
24BB-X/J	.	.
!LO:TUP:b:r=8	!	!
24D/L	[8g\) [8dd- [8ee [8gg	.
24E/	.	.
24G/JJ)	.	[
!	!	!LO:HP:b=2
(4C-X\ 4c-X	8g/L] 8dd-] 8ee] 8gg]	>
.	8d#X/ 8dd#X	.
8BB-X\) 8B-X	8e/J 8ee	]
=120	=120	=120
*	*	*^
!	!	!	!LO:HP:b=2
(16BBBn/LL	(4b-X\ 4dd 4ff 4bb-X	>	<
16DD/J	.	.	.
!LO:TUP:b:r=8	!	!	!
24FF/L	.	.	.
24AA-X/	.	.	.
24BB/J	.	.	.
!LO:TUP:b:r=8	!	!	!
24D/L	[8a-X\) [8dd [8ff [8aa-X	]	.
24F/	.	.	.
24A-X/JJ)	.	.	[
!	!	!	!LO:HP:b=2
(4C\ 4c	8a-/L] 8dd] 8ff] 8aa-]	.	>
.	8e^/ 8ee	.	.
8BB\) 8B	8f^/J 8ff	.	]
=121	=121	=121	=121
!	!	!	!LO:HP:b=2
(16BBBn/LL	(4b-X\ 4dd 4ff 4bb-X	>	<
16DD/J	.	.	.
!LO:TUP:b:r=8	!	!	!
24FF/L	.	.	.
24AA-X/	.	.	.
24BB/J	.	.	.
!LO:TUP:b:r=8	!	!	!
24D/L	[8a-X\) [8dd [8ff [8aa-X	]	.
24F/	.	.	.
24A-X/JJ)	.	.	[
!	!	!	!LO:HP:b=2
(4C\ 4c	8a-/L] 8dd] 8ff] 8aa-]	.	>
.	8e^/ 8ee	.	.
8BB\) 8B	8f^/J 8ff	.	]
*	*	*v	*v
!!LO:PB:g=original
=122	=122	=122
(16CC/LL	(4bn\ 4ee-X 4gg-X 4bbn	.
16EE-X/J	.	.
!LO:TUP:b:r=8	!	!
24GG-X/L	.	.
24AA/	.	.
24C/J	.	.
!LO:TUP:b:r=8	!	!
24E-X/L	[8a\) [8ee- [8gg- [8aa	.
24G-X/	.	.
24A/JJ)	.	.
(4D-X\ 4d-X	8a\L] 8ee-] 8gg-] 8aa]	.
.	8f^\ 8ff	.
8C\) 8c	8g-X^\J 8gg-	.
=123	=123	=123
(16CC/LL	(4b\ 4ee-X 4gg-X 4bb	.
16EE-X/J	.	.
!LO:TUP:b:r=8	!	!
24GG-X/L	.	.
24AA/	.	.
24C/J	.	.
!LO:TUP:b:r=8	!	!
24E-X/L	[8a\) [8ee- [8gg- [8aa	.
24G-X/	.	.
24A/JJ)	.	.
(4D-X\ 4d-X	8a\L] 8ee-] 8gg-] 8aa]	.
.	8f^\ 8ff	.
8C\) 8c	8g-X^\J 8gg-X	.
=124	=124	=124
(16DD-X/LL	(4cc\ 4een 4ggn 4ccc	.
16EEn/J	.	.
!LO:TUP:b:r=8	!	!
24GGn/L	.	.
24BB-X/	.	.
24D-X/J	.	.
!LO:TUP:b:r=8	!	!
24E/L	[8b-X\) [8ee [8gg [8bb-X	.
24G/	.	.
24B-X/JJ)	.	.
(4E--\ 4e--	8b-\L] 8ee] 8gg] 8bb-]	.
.	8f#X^\ 8ff#X	.
8D-\) 8d-X	8g^\J 8gg	.
!!LO:LB:g=original
=125	=125	=125
(16DD-X/LL	(4cc\ 4ee 4gg 4ccc	.
16EE/J	.	.
!LO:TUP:b:r=8	!	!
24GG/L	.	.
24BB-X/	.	.
24D-X/J	.	.
!LO:TUP:b:r=8	!	!
24E/L	8b-X\) 8ee 8gg 8bb-X	.
24G/	.	.
24B-X/JJ)	.	.
16D-\LL 16d	16r	.
16r	16f/LL 16ff	.
16E-X\ 16e-X	16r	.
16r	16f#X/ 16ff#X	.
16En\JJ 16en	16r	.
16r	16g/JJ 16gg	.
=126	=126	=126
!	!LO:TUP:a:r=8	!
4F\ 4c-X 4e-X 4f	(24a-X\LL	.
.	24cc-X\	.
.	24ee-X\J	.
!	!LO:TUP:a:r=8	!
.	24aa-X\L	.
.	24ccc-X\	.
.	24eee-X\J	.
8F#X^\ 8f#X	8aaa-X\J)	.
8G^\L 8g	16r	.
.	16ff\LL 16fff	.
8A-X^\ 8a-X	16r	.
.	16ff\ 16fff	.
8An^\J 8an	16r	.
.	16ff\JJ 16fff	.
=127	=127	=127
*	*8va	*
!LO:N:vis=4	!	!
4.B-X\ 4.d 4.f#X 4.b-X	4bb-X^\ 4ddd 4fff#X 4bbb-X	.
.	8aa^\ 8aaa	.
(16BBB-X/LL	8aa-X^\L 8aaa-X	.
16DD/J	.	.
16FF#X/L	8gg^\ 8ggg	.
16BB-X/J	.	.
!LO:TUP:b	!	!
24D/L	8ff#X^\J 8fff#X	.
24F#X/	.	.
24B-/JJ)	.	.
=128	=128	=128
4C-X\ 4c-X	4ffn\ 4aa-X 4eee-X 4fffn	.
8F\ 8f	8ff\ 8fff	.
8F\L 8f	8ff\L 8fff	.
8F\ 8f	8ff\ 8fff	.
8F\J 8f	8ff\J 8fff	.
*clefG2	*	*
!!LO:LB:g=original
=129	=129	=129
16c-X/LL 16e-X 16a-X 16cc-X	8ccc-X\ 8eee-X 8aaa-X 8cccc-X	.
16r	.	.
16B-X/ 16b-X	16r	.
16r	16bb-X\LL 16bbb-X	.
16Any/JJ 16any	16r	.
16r	16aa\JJ 16aaany	.
16A-X/LL 16a-X	16r	.
16r	16aa-X\LL 16aaa-X	.
16G/ 16g	16r	.
16r	16gg\ 16ggg	.
16F#X/JJ 16f#X	16r	.
16r	16ff#X\JJ 16fff#X	.
*	*X8va	*
*clefF4	*	*
=130	=130	=130
16C-X\LL 16c-X	16r	.
16r	16cc-X\LL 16ccc-X	.
16BB-X\ 16B-X	16r	.
16r	16b-X\ 16bb-X	.
16AA\JJ 16A	16r	.
16r	16a\JJ 16aa	.
16AA-X\LL 16A-X	16r	.
16r	16a-X\LL 16aa-X	.
16GG\ 16G	16r	.
16r	16g\ 16gg	.
16FF#X\JJ 16F#X	16r	.
16r	16f#X\JJ 16ff#X	.
=131	=131	=131
16EE/LL 16E	16r	.
!	!	!LO:HP:a:t=diminuendo_:ext=ud
16r	16Fn/LL 16fn	<
16EE-X/ 16E-X	16r	.
16r	16F/ 16f	.
16DD/JJ 16D	16r	.
16r	16F/JJ 16f	.
16DD-X/LL 16D-X	16r	.
16r	16F/LL 16f	.
16CC/ 16C	16r	.
16r	16F/ 16f	.
16BBB/JJ 16BB	16r	.
16r	16F/JJ 16f	[
*	*clefF4	*
!!LO:LB:g=original
=132	=132	=132
16BBB-X/LL 16BB-X	16r	.
16r	16BBn\LL 16D 16F 16Bn	.
16AAA/ 16AA	16rF	.
16r	16BB\ 16D 16F 16B	.
16AAA-X/JJ 16AA-X	16r	.
16r	16BB\JJ 16D 16F 16B	.
16GGG/LL 16GG	16r	.
16r	16BB\LL 16D 16F 16B	.
16GGG-X/ 16GG-X	16r	.
16r	16BB\ 16D 16F 16B	.
16FFF/JJ 16FF	16r	.
16r	16BB\JJ 16D 16F 16B	.
=133	=133	=133
*8ba	*	*
!LO:N:vis=32	!	!
64%3DDD/LL	(4BBn\ 4F 4B-X	p
64%3FFF/	.	.
64%3AAA-X/	.	.
64%3BBB/	.	.
64%3DD/	.	.
64%3BBB/	.	.
.	8BB'\) 8F 8A-X	.
64%3AAA-/	.	.
64%3FFF/JJ	.	.
*Xtuplet	*	*
!LO:N:vis=32	!	!
64%3DDD/LL	8r	.
64%3FFF/	.	.
64%3AAA-/	.	.
.	(8E^\L	<
64%3BBB/	.	.
64%3DD/	.	.
64%3BBB/	.	.
.	8F^\J	[[
64%3AAA-/	.	.
64%3FFF/JJ	.	.
=134	=134	=134
!LO:N:vis=32	!	!
64%3DDD/LL	4E-X\ 4G-X 4d-X	>
64%3EEE-X/	.	.
64%3GGG-X/	.	.
64%3AAA/	.	.
64%3CC/	.	.
64%3AAA/	.	.
.	8E-'\) 8G- 8c	]
64%3GGG-/	.	.
64%3EEE-/JJ	.	.
!LO:N:vis=32	!	!
64%3DDD/LL	(16D\LL	.
64%3EEE-/	.	.
.	16E-X\J	.
64%3GGG-/	.	.
!	!LO:TUP:a:r=8	!
.	24G-X\L	.
64%3AAA/	.	.
.	24c\	.
64%3CC/	.	.
.	24d-\J	.
64%3AAA/	.	.
*	*clefG2	*
!	!LO:TUP:a:r=8	!
.	24e-X\L	.
64%3GGG-/	.	.
.	24g-X\	.
64%3EEE-/JJ	.	.
.	24cc\JJ)	.
*X8ba	*	*
!!LO:LB:g=original
=135	=135	=135
!LO:N:vis=32	!	!
64%3DDD/LL	(<4e-X/ 4a-X 4b 4ee-X	>
64%3FFF/	.	.
64%3AAA-X/	.	.
64%3BBB/	.	.
64%3DD/	.	.
64%3FF/	.	.
.	8d/) 8a- 8b 8dd	]
64%3AA-X/	.	.
64%3BB/JJ	.	.
!LO:N:vis=32	!	!
64%3D/LL	8G-X/L 8g-X	.
64%3BB/	.	.
64%3AA-/	.	.
.	8Gn/ 8gn	.
64%3FF/	.	.
64%3DD/	.	.
64%3BBB/	.	.
.	8A-X/J 8a-	.
64%3AAA-/	.	.
64%3FFF/JJ	.	.
=136	=136	=136
!LO:N:vis=32	!	!
64%3DDD/LL	(4g-X\ 4a-X 4b 4gg-X	.
64%3FFF/	.	.
64%3AAA-X/	.	.
64%3BBB/	.	.
64%3DD/	.	.
64%3FF/	.	.
.	8f'\) 8a- 8b 8ff	.
64%3AA-X/	.	.
64%3BB/JJ	.	.
*	*Xtuplet	*
!LO:N:vis=32	!LO:N:vis=32	!
64%3D/LL	64%3Gn/LL	<
64%3BB/	64%3A-X/	.
64%3AA-/	64%3B/	.
64%3FF/	64%3f/	.
64%3DD/	64%3gn/	.
64%3BBB/	64%3a-X/	.
64%3AAA-/	64%3b/	.
64%3FFF/JJ	64%3ff/JJ	[[
=137	=137	=137
*tuplet	*	*
!LO:TUP:b	!	!
88%3DDD/LLL	(4a-X\ 4dd-X 4ee 4aa-X	.
88%3GGG/	.	.
88%3BBB-X/	.	.
88%3DD-X/	.	.
88%3EE/	.	.
88%3GG/	.	.
88%3BB-X/	.	.
88%3D-/	.	.
.	[8g\) [8dd- [8ee [8gg	.
88%3E/	.	.
88%3G/	.	.
88%3B-X/JJJ	.	.
(4C-X\ 4c-X	8g/L] 8dd-] 8ee] 8gg]	.
.	8d#X/ 8dd#X	.
8BB-\) 8B-	8e/J 8ee	.
!!LO:LB:g=original
=138	=138	=138
*Xtuplet	*	*
!LO:N:vis=32	!	!
64%3BBBn/LL	(4b-X\ 4dd 4ff 4bb-X	.
64%3DD/	.	.
64%3FF/	.	.
64%3AA-X/	.	.
64%3BB/	.	.
64%3D/	.	.
.	[8a-X\) [8dd [8ff [8aa-X	.
64%3F/	.	.
64%3A-X/JJ	.	.
(4C\ 4c	8a-/L] 8dd] 8ff] 8aa-]	.
.	8e/ 8ee	.
8BB\) 8B	8f/J 8ff	.
=139	=139	=139
!LO:N:vis=32	!	!
(64%3CC/LL	(4bn\ 4ee-X 4gg-X 4bbn	.
64%3EE-X/	.	.
64%3GG-X/	.	.
64%3AAn/	.	.
64%3C/	.	.
64%3E-X/	.	.
.	[8a\) [8ee- [8gg- [8aa	.
64%3G-X/	.	.
64%3A/JJ)	.	.
(4D-X\ 4d-X	8a\L] 8ee-] 8gg-] 8aa]	.
.	8f^\ 8ff	.
8C\) 8c	8g-X^\J 8gg-	.
=140	=140	=140
!LO:N:vis=32	!	!
(64%3DD-X/LL	(4cc\ 4een 4ggn 4ccc	.
64%3EEn/	.	.
64%3GGn/	.	.
64%3BB-X/	.	.
64%3D-X/	.	.
64%3E/	.	.
.	[8b-X\) [8ee [8gg [8bb-X	.
64%3G/	.	.
64%3B-X/JJ)	.	.
(4E--\ 4e--	8b-\L] 8ee] 8gg] 8bb-]	.
.	8f#X^\ 8ff#X	.
8D-X\) 8d-X	8g^\J 8gg	.
!!LO:PB:g=original
=141	=141	=141
!LO:N:vis=32	!	!
(64%3DDn/LL	(4cc\ 4ff 4aa-X 4ccc	f
64%3FF/	.	.
64%3AA-X/	.	.
64%3BBn/	.	.
64%3D/	.	.
64%3F/	.	.
.	[8b\) [8ff [8aa- [8bb	.
64%3A-X/	.	.
64%3B/JJ)	.	.
!LO:N:vis=32	!	!
(64%3d\LL	8b\L] 8ff] 8aa-] 8bb]	.
64%3c#X\	.	.
64%3d\	.	.
.	8a#X\ 8aa#X	.
64%3c#\JJ	.	.
64%3d\LL	.	.
64%3c#\	.	.
.	8b\J 8bb	.
64%3d\	.	.
64%3c#\JJ)	.	.
=142	=142	=142
!LO:N:vis=32	!	!
(64%3DD/LL	(4cc\ 4ff 4aa-X 4ccc	.
64%3FF/	.	.
64%3AA-X/	.	.
64%3BB/	.	.
64%3D/	.	.
64%3F/	.	.
.	[8b\) [8ff [8aa- [8bb	.
64%3A-X/	.	.
64%3B/JJ)	.	.
!LO:N:vis=32	!	!
(64%3d\LL	8b\L] 8ff] 8aa-] 8bb]	.
64%3c#X\	.	.
64%3d\	.	.
.	8a#X\ 8aa#X	.
64%3c#\	.	.
64%3d\	.	.
64%3c#\	.	.
.	8b\J 8bb	.
64%3d\	.	.
64%3c#\JJ)	.	.
*clefG2	*	*
=143	=143	=143
8B/L 8b	16r	<
.	8cc\L 8ccc	.
8c/ 8cc	.	.
.	8dd-X\ 8ddd-X	.
8c#X/J 8cc#X	.	.
.	16ddn\Jk 16dddn	.
8d/L 8dd	16r	.
.	8ee-X\L 8eee-X	.
8d#X/ 8dd#X	.	.
.	8een\ 8eeen	.
8e/J 8ee	.	.
.	16ff\Jk 16fff	[
*clefF4	*	*
!!LO:LB:g=original
=144	=144	=144
!LO:N:vis=32	!	!
(64%3D\LL	(4ff#X\ 4gg#X 4bb 4fff#X	.
64%3Fn\	.	.
64%3G#X\	.	.
64%3B\	.	.
*clefG2	*	*
64%3d\	.	.
64%3f\	.	.
.	[8ffn\) [>8gg# [8bb [8fffn	.
64%3g#X\	.	.
64%3b\JJ	.	.
64%3dd\LL	8ff\L] 8gg#] 8bb] 8fff]	.
64%3cc#X\	.	.
64%3dd\	.	.
.	8ee^\ 8eee	.
64%3cc#\JJ	.	.
64%3dd\LL	.	.
64%3cc#\	.	.
.	8ff^\J 8fff	.
64%3dd\	.	.
64%3cc#\JJ)	.	.
*clefF4	*	*
=145	=145	=145
!LO:N:vis=32	!	!
(64%3D\LL	(4ff#X\ 4gg#X 4bb 4fff#X	.
64%3Fn\	.	.
64%3G#X\	.	.
64%3B\	.	.
*clefG2	*	*
64%3d\	.	.
64%3f\	.	.
.	[8ffn\) [>8gg# [8bb [8fffn	.
64%3g#X\	.	.
64%3b\JJ	.	.
64%3dd\LL	8ff\L] 8gg#] 8bb] 8fff]	.
64%3cc#X\	.	.
64%3dd\	.	.
.	8ee^\ 8eee	.
64%3cc#\JJ	.	.
64%3dd\LL	.	.
64%3cc#\	.	.
.	8ff^\J 8fff	.
64%3dd\	.	.
64%3cc#\JJ)	.	.
=146	=146	=146
8e#X\L 8ee#X	16r	<
.	16ff#X\LL 16fff#X	.
8f#X\ 8ff#X	16r	.
.	16gg\ 16ggg	.
8g\J 8gg	16r	.
.	16gg#X\JJ 16ggg#X	.
8g#X\L 8gg#X	16r	.
.	16aa\LL 16aaa	.
8a\ 8aa	16r	.
.	16bb-X\ 16bbb-X	.
8b-X\J 8bb-X	16r	[
.	16bbn\JJ 16bbbn	.
!!LO:LB:g=original
=147	=147	=147
*	*8va	*
8r	4ddd-X\ 4eee-X 4ggg-X 4dddd-X	.
8b-X^\L 8ee-X 8gg-X 8bb-X	.	.
8a^\J 8ee- 8gg- 8aa	8ccc\ 8eee- 8ggg- 8cccc	.
*	*X8va	*
8B-X^>/L 8e-X 8g-X 8b-	8r	.
8A^>/J 8e- 8g- 8a	8dd-^\L 8ee- 8gg- 8ddd-	.
8r	8cc^\J 8ee- 8gg- 8ccc	.
*clefF4	*	*
=148	=148	=148
4.AA\ 4.D 4.F 4.A	16r	.
!	!	!LO:HP:t=molto cresc.:ext=s
.	(16B/LL	<
.	16d/	.
.	16f/	.
.	16b/	.
.	16dd/JJ	.
4.AA-X\ 4.D 4.F 4.A-X	16ff\LL	.
.	16bb\	.
.	16ddd\	.
.	16fff\J	.
.	8bbb\J)	.
*	*clefF4	*
=149	=149	=149
4.GGG/ 4.BBB 4.DD 4.GG	(16D\LL	.
.	16A-X\	.
.	16Bn\	.
.	16d\	.
*	*clefG2	*
.	16a-X\	.
.	16b\JJ	.
4.GGG-X/ 4.GG-X	16dd\LL	.
.	16aa-X\	.
.	16bb\	.
.	16ddd\	.
.	16aaa-X\	.
.	16bbb\JJ)	.
!!LO:LB:g=original
=150	=150	=150
*ped	*	*
!	!LO:TX:a:i:t=con forza possibile	!
8qFFF/ 8qFF	.	.
*	*8va	*
*^	*	*
4B-X\ 4b-X	4.B-/ 4.d	4ddd\ 4fff 4bbb-X 4dddd	.
*	*	*X8va	*
8A\ 8a	.	[8dd\ [8bb- [8ddd	.
4A-X\ 4a-X	4B-/ 4d	8dd\L] 8bb-] 8ddd]	.
.	.	8dd\ 8bb- 8ddd	.
.	.	(>8qqfff/	.
8G\ 8B- 8e-X 8g	8ryy	8ee-X\J) 8bb- 8eee-X	.
*v	*v	*	*
=151	=151	=151
*	*^	*
!	!LO:TX:a:i:t=molto _ rit.	!	!
4.G-X\ 4.c 4.e-X 4.g	4dd\ 4ddd	4.ee-X/ 4.bb-X	.
.	8cc\ 8ccc	.	.
4F\ 4c 4e- 4f	8cc\L 8ccc	4ff/ 4aa	.
.	8dd\ 8ddd	.	.
8E-X\ 8A 8c 8e-	8ee-\J 8ccc 8eee 8ggg-X	8ryy	.
*	*v	*v	*
=152	=152	=152
4D\ 4A-X 4B 4d	4aa\ 4ddd 4fff 4aaa	.
2ryy	8r	.
*	*clefF4	*
*	*tremolo	*
!	!LO:TX:a:t=P:problem=mixed beam	!
!	!LO:TX:a:i:t=a tempo	!
.	32DD</LLL 32D<	<
.	32C\ 32c	.
.	32DD</ 32D<	.
.	32C\ 32c	.
.	32DD</ 32D<	.
.	32C\ 32c	.
.	32DD</ 32D<	.
.	32C\ 32c	.
.	32DD</ 32D<	.
.	32C\ 32c	.
.	32DD</ 32D<	.
.	32C\JJJ 32c	.
=153	=153	=153
!	!LO:TX:a:t=P:problem=mixed beam	!
2.ryy	32DD</LLL 32D<	.
.	32C\ 32c	.
.	32DD</ 32D<	.
.	32C\ 32c	.
.	32DD</ 32D<	.
.	32C\ 32c	.
.	32DD</ 32D<	.
.	32C\ 32c	.
.	32DD</ 32D<	.
.	32C\ 32c	.
.	32DD</ 32D<	.
.	32C\ 32c	.
.	32DD</ 32D<	.
.	32C\ 32c	.
.	32DD</ 32D<	.
.	32C\ 32c	.
.	32DD</ 32D<	.
.	32C\ 32c	.
.	32DD</ 32D<	.
.	32C\ 32c	.
.	32DD</ 32D<	.
.	32C\ 32c	.
.	32DD</ 32D<	.
.	32C\JJJ 32c	[
*	*Xtremolo	*
=154	=154	=154
16BBB/LL 16BB	16r	ff
!	!LO:TX:a:i:t=accelerando	!LO:HP:t=crescendo
16r	16C\LL 16c	<
16CC#X/ 16C#X	16r	.
16r	16D\ 16d	.
16DD#X/JJ 16D#X	16r	.
16r	16E\JJ 16e	.
16FF/LL 16F	16r	.
16r	16F#X\LL 16f#X	.
16GG/ 16G	16r	.
16r	16G#X\ 16g#X	.
16AA/JJ 16A	16r	.
16r	16B-X\JJ 16b-X	.
*	*clefG2	*
!!LO:LB:g=original
=155	=155	=155
16BBn\LL 16Bn	16r	.
16r	16c/LL 16cc	.
16C#X\ 16c#X	16r	.
16r	16d/ 16dd	.
16D#X\JJ 16d#X	16r	.
16r	16e/JJ 16ee	.
16F\LL 16f	16r	.
16r	16f#X\LL 16ff#X	.
16G\ 16g	16r	.
16r	16g#X\ 16gg#X	.
16A\JJ 16a	16r	.
16r	16b-X\JJ 16bb-X	.
*clefG2	*	*
=156	=156	=156
16B/LL 16b	16r	.
16r	16cc\LL 16ccc	.
16c#X/ 16cc#X	16r	.
16r	16dd\ 16ddd	.
16d#X/JJ 16dd#X	16r	.
16r	16ee\JJ 16eee	.
16f\LL 16ff	16r	.
16r	16ff#X\LL 16fff#X	.
16g\ 16gg	16r	.
16r	16gg#X\ 16ggg#X	.
16a\JJ 16aa	16r	.
16r	16bb-X\JJ 16bbb-X	.
=157	=157	=157
*ped	*	*
!	!LO:TX:b:i:t=rit._	!
8B^>/L 8b	8bbn^\L 8bbbn	.
8B^>/ 8b	8bb^\ 8bbb	.
8B^>;/J 8b	8bb^;\J 8bbb	.
*clefF4	*	*
*8ba	*	*
8BBBB^>/L 8BBB	4r	.
8BBBB^>/ 8BBB	.	.
8BBBB^>;/J 8BBB	8r	.
*	*clefF4	*
!!LO:LB:g=original
=158	=158	=158
*MM72	*MM72	*
*^	*^	*
!	!	!LO:TX:a:B:t=Andante, misterioso. M.M. [quarter]=72.	!	!
4.BBBB~</ 4.BBB	2.FFF\ 2.AAA-X	2.F~/	2.AA-X\ 2.E-X	pp
4.BBBB~</ 4.BBB	.	.	.	.
*Xped	*	*	*	*
*	*	*v	*v	*
=159	=159	=159	=159
*ped	*	*	*
4.BBBB~</ 4.BBB	2.EEE\ 2.GGG	2.BB~\ 2.E 2.G 2.B	.
4.BBBB~</ 4.BBB	.	.	.
*Xped	*	*	*
*	*	*clefG2	*
=160	=160	=160	=160
*ped	*	*	*
4.BBBB~</ 4.BBB	2.FFF\ 2.AAA-X	2.F~/ 2.A-X 2.e-X 2.f	.
4.BBBB~</ 4.BBB	.	.	.
*Xped	*	*	*
=161	=161	=161	=161
*ped	*	*	*
4.BBBB~</ 4.BBB	2.EEE\ 2.GGG	2.B~/ 2.e 2.g 2.b	.
4.BBBB~</ 4.BBB	.	.	.
*Xped	*	*	*
=162	=162	=162	=162
*	*	*^	*
*ped	*	*	*	*
4.BBBB~</ 4.BBB	2.FFF\ 2.AAA-X	2.ff/	2.f~\ 2.a-X 2.ee-X	.
4.BBBB~</ 4.BBB	.	.	.	.
*Xped	*	*	*	*
*	*	*v	*v	*
=163	=163	=163	=163
*ped	*	*	*
4.BBBB~</ 4.BBB	2.EEE\ 2.GGG	2.b~\ 2.ee 2.gg 2.bb	.
4.BBBB~</ 4.BBB	.	.	.
*Xped	*	*	*
*v	*v	*	*
=164	=164	=164
*ped	*	*
[2.BBBB-X/ [2.EEE-X [2.GGG-X [2.BBB-X	[2.ee--\ [2.gg [2.bb-X [2.eee-X	ppp
=165	=165	=165
2.BBBB-/] 2.EEE-] 2.GGG-] 2.BBB-]	2.ee--\] 2.gg] 2.bb-] 2.eee-]	.
*X8ba	*	*
=166	=166	=166
*MM56	*MM56	*
!LO:TUP:a	!LO:TX:a:B:t=Lento. [quarter]=56.	!
(16%3BB-X\L 16%3E-X 16%3G-X 16%3B-X	2.r	.
[16%3BB-\J [16%3E- [16%3G- [16%3B-	.	.
8BB-\L] 8E-] 8G-] 8B-]	.	.
8BB-\ 8E- 8G- 8B-	.	.
8BB-\J) 8E- 8G- 8B-	.	.
=167	=167	=167
*	*^	*
!LO:TUP:a	!	!	!
16%3r	2.a-X~\ 2.cc	4.ryy	.
[16%3BB-X\ [16%3E-X [16%3G-X [16%3B-X	.	.	.
8BB-\L] 8E-] 8G-] 8B-]	.	[4.d-X/	sfz
8BB-\ 8E- 8G- 8B-	.	.	.
8BB-\J 8E- 8G- 8B-	.	.	.
!!LO:PB:g=original
=168	=168	=168	=168
*ped	*	*	*
4FFF#X/ 4CC#X 4FF#X	2.an~>/ 2.cc#X	2.c#X\]	.
[8C#X\ [8F#X [8A [8c#X	.	.	.
8C#\L] 8F#] 8A] 8c#]	.	.	.
8C#\ 8F# 8A 8c#	.	.	.
*Xped	*	*	*
[8C#\J [8F# [8A [8c#	.	.	.
=169	=169	=169	=169
!LO:TUP:a	!	!	!
16%3C#X\L] 16%3F#X] 16%3A] 16%3c#X]	2.b~>/ 2.dd#X	4.d#X\	.
[16%3C#\J [16%3F# [16%3A [16%3c#	.	.	.
8C#\L] 8F#] 8A] 8c#]	.	[4.e\	sfz
8C#\ 8F# 8A 8c#	.	.	.
8C#\J 8F# 8A 8c#	.	.	.
=170	=170	=170	=170
*ped	*	*	*
4EEE/ 4AAA 4EE	2.ccn~>/ 2.ee	2.e\]	.
[8Cn\ [8E [8A [8cn	.	.	.
8C\L] 8E] 8A] 8c]	.	.	.
8C\ 8E 8A 8c	.	.	.
[8C\J [8E [8A [8c	.	.	.
=171	=171	=171	=171
!LO:TUP:a	!	!	!
16%3C\L] 16%3E] 16%3A] 16%3c]	2.dd/ 2.ff#X	4.f#X\	.
[16%3C\J [16%3E [16%3A [16%3c	.	.	.
8C\L] 8E] 8A] 8c]	.	4.g\	sfz
8C\ 8E 8A 8c	.	.	.
8C\J 8E 8A 8c	.	.	.
=172	=172	=172	=172
*ped	*	*	*
*8ba	*	*	*
4CCC#X/ 4GGG#X 4CC#X	2.ee/ 2.gg#X	2.g#X\	.
*X8ba	*	*	*
[8C#\ [8E [8G#X [8c#X	.	.	.
8C#\L] 8E] 8G#] 8c#]	.	.	.
8C#\ 8E 8G# 8c#	.	.	.
*Xped	*	*	*
[8C#\J [8E [8G# [8c#	.	.	.
=173	=173	=173	=173
!LO:TUP:a	!	!	!
16%3C#\L] 16%3E] 16%3G#] 16%3c#]	2.ff#X/ 2.aa#X	4.a#X\	.
[16%3C#X\J [16%3E [16%3G#X [16%3c#X	.	.	.
8C#\L] 8E] 8G#] 8c#]	.	4.b\	.
8C#\ 8E 8G# 8c#	.	.	.
8C#\J 8E 8G# 8c#	.	.	.
*	*v	*v	*
!!LO:LB:g=original
=174	=174	=174
*8ba	*	*
4CCCn/ 4FFF 4AAA-X 4CCn	4cc\ 4ffn 4aa-X 4ccc	.
*	*clefF4	*
8CCC/ 8FFF 8AAA- 8CC	8C\ 8F 8A-X 8c	.
8r	8r	.
8CCC/L 8FFF 8AAA- 8CC	8C\L 8F 8A- 8c	.
8CCC/J 8FFF 8AAA- 8CC	8C\J 8F 8A- 8c	.
*X8ba	*	*
=175	=175	=175
*^	*^	*
2.F^/	8r	2.f/	8r	ff
.	8r	.	8r	.
*	*8ba	*	*	*
.	8CCC/ 8FFF 8AAA-X 8CC	.	8C\ 8F 8A 8c	.
.	8r	.	8r	.
.	8CCC/L 8FFF 8AAA- 8CC	.	8C\L 8F 8A 8c	.
.	8CCC/J 8FFF 8AAA- 8CC	.	8C\J 8F 8A 8c	.
*	*X8ba	*	*	*
*	*	*v	*v	*
*	*	*clefG2	*
*v	*v	*	*
=176	=176	=176
*M3/4	*M3/4	*
*^	*	*
*ped	*	*	*
!	!	!	!LO:HP:a:t=poco dim._:ext=s:ext=ud
4r	2.F-X\	2.f-X/	>]
!LO:TX:a:t=P:problem=mixed beam	!	!	!
(32DD-X/LLL	.	.	.
32AA-X/	.	.	.
32BB-X/	.	.	.
32D-X/	.	.	.
32F-X>\	.	.	.
32A-X>\	.	.	.
32B-X>\	.	.	.
32d-X>\JJJ	.	.	.
!LO:TX:a:t=P:problem=mixed beam	!	!	!
32D-/LLL	.	.	.
32A-/	.	.	.
32B-/	.	.	.
32d-/	.	.	.
32f-X>\	.	.	.
32a-X>\	.	.	.
32b-X>\	.	.	.
32dd-X>\JJJ)	.	.	.
*v	*v	*	*
=177	=177	=177
!	!LO:TX:b:i:t=poco rit.	!
4A-X\	4a-X^\ 4aa-X	.
4A-\	4a-^\ 4aa-	.
4A-\	4a-^\ 4aa-	.
*Xped	*	*
*	*clefF4	*
!!LO:LB:g=original
=178	=178	=178
*M6/8	*M6/8	*
*^	*^	*
2.C^/	8r	2.c^>/	8r	ff
!	!	!LO:TX:b:t=possibile	!	!
.	8r	.	8r	.
*	*8ba	*	*	*
.	8CCC/ 8FFF 8AAA-X 8CC	.	8C^>\ 8F 8A-X 8c	.
.	8r	.	8r	.
.	8CCC/L 8FFF 8AAA- 8CC	.	8C^>\L 8F 8A- 8c	.
.	8CCC/J 8FFF 8AAA- 8CC	.	8C^>\J 8F 8A- 8c	.
*	*X8ba	*	*	*
=179	=179	=179	=179	=179
2.F/	8r	2.f/	8r	.
.	8r	.	8r	.
*	*8ba	*	*	*
.	8CCC/ 8FFF 8AAA-X 8CC	.	8C^>\ 8F 8A-X 8c	.
.	8r	.	8r	.
.	8CCC/L 8FFF 8AAA- 8CC	.	8C^>\L 8F 8A- 8c	.
.	8CCC/J 8FFF 8AAA- 8CC	.	8C^>\J 8F 8A- 8c	.
*	*X8ba	*	*	*
*	*	*v	*v	*
*	*	*clefG2	*
*v	*v	*	*
=180	=180	=180
*M3/4	*M3/4	*
*^	*	*
*ped	*	*	*
4r	2.F-X\	2.f-X/	.
!LO:TX:a:t=P:problem=mixed beam	!	!	!
(32DD-X/LLL	.	.	.
32AA-X/	.	.	.
32BB-X/	.	.	.
32D-X/	.	.	.
32F-X>\	.	.	.
32A-X>\	.	.	.
32B-X>\	.	.	.
32d-X>\JJJ	.	.	.
!LO:TX:a:t=P:problem=mixed beam	!	!	!
32D-/LLL	.	.	.
32A-/	.	.	.
32B-/	.	.	.
32d-/	.	.	.
32f-X>\	.	.	.
32a-X>\	.	.	.
32b-X>\	.	.	.
32dd-X>\JJJ)	.	.	.
*v	*v	*	*
=181	=181	=181
4A-X\ 4a-X	4aa-X^\ 4aaa-X	.
4A-\ 4a-	4aa-^\ 4aaa-	.
4A-\ 4a-	4aa-^\ 4aaa-	.
*Xped	*	*
=182||	=182||	=182||
*k[b-e-a-d-]	*k[b-e-a-d-]	*
*M6/8	*M6/8	*
!	!LO:TX:b:i:t=con fuoco	!
!	!LO:TX:a:B:t=Allegro.	!
4r	8dd-^\L 8ddd-	.
.	8dd-^\ 8ddd-	.
8r	8dd-^\J 8ddd-	.
8EEEn^>/L 8EEn	4r	.
8EEE^>/ 8EE	.	.
8EEE^>/J 8EE	8r	.
*	*clefF4	*
!!LO:LB:g=original
=183	=183	=183
4.FFF/ 4.FF	(16Dn\LL	<
.	16B-\	.
.	16dn\	.
*	*clefG2	*
.	16d\	.
.	16b-\	.
.	16ddn\JJ	.
[4.FFF#X/ [4.FF#X	16d\LL	.
.	16b-\	.
.	16dd\	.
.	16dd\	.
.	16bb-\	.
.	16dddn\JJ)	.
=184	=184	=184
4FFF#/] 4FF#]	8een^\L 8eeen	.
.	8ee^\ 8eee	.
8r	8ee^\J 8eee	[
8GGG^/L 8GG	4r	.
8GGG^/ 8GG	.	.
8GGG^/J 8GG	8r	.
=185	=185	=185
4.AAA-/ 4.AA-	(16F/LL	<
.	16d-/	.
.	16f/	.
.	16f/	.
.	16dd-/	.
.	16ff/JJ	.
[4.AAAn/ [4.AAn	16f\LL	.
.	16dd-\	.
.	16ff\	.
.	16ff\	.
.	16ddd-\	.
.	16fff\JJ)	.
=186	=186	=186
4AAA/] 4AA]	8gg^\L 8ggg	.
.	8gg^\ 8ggg	.
8r	8gg^\J 8ggg	[
8BBB-^/L 8BB-	8ryy	.
8BBB-^/ 8BB-	4ryy	.
8BBB-^/J 8BB-	.	.
!!LO:LB:g=original
=187	=187	=187
*	*8va	*
16BBBn/LL	(4bb-\ 4dddn 4fff 4bbb-	.
16FF/	.	.
16AA-/	.	.
16Dn/	.	.
16F/	[8aa-\) [8aaa-	.
16A-/JJ	.	.
*clefG2	*	*
(4dn/ 4f 4b-X	8aa-\L] 8aaa-]	.
.	8een~\ 8eeen	.
8Bn/) 8d 8a-	8ff~\J 8fff	.
*clefF4	*	*
=188	=188	=188
16CC/LL	(4gg\ 4ccc 4ggg	.
16FF/	.	.
16AA-/	.	.
16C/	.	.
16F/	[8ff\) [8fff	.
16A-/JJ	.	.
(4A-\ 4c 4g	8ff\L] 8fff]	.
.	8een~\ 8eeen	.
8A-\) 8c 8f	8ff~\J 8fff	.
=189	=189	=189
16DDn/LL	(4bb-X\ 4dddn 4fff 4bbb-X	.
16AA-/	.	.
16BBn/	.	.
16F/	.	.
16A-/	[8aa-\) [8aaa-	.
16Bn/JJ	.	.
*clefG2	*	*
(4dn/ 4f 4b-X	8aa-\L] 8aaa-]	.
.	8een~\ 8eeen	.
!LO:N:vis=4	!	!
8Bn/) 8d 8a-	8ff~\J 8fff	.
*clefF4	*	*
=190	=190	=190
16EE-/LL	(4ff\ 4aa- 4ccc 4fff	.
16AA-/	.	.
16C/	.	.
16E-/	.	.
16A-/	[8ee-/) [8eee-	.
16c/JJ	.	.
(4A-\ 4c 4f	8ee-/L] 8eee-]	.
.	8bn/ 8bbn	.
8A-\) 8c 8e-	8cc/J 8ccc	.
*	*X8va	*
!!LO:LB:g=original
=191	=191	=191
*	*^	*
(16FF-X\LL	2.aa-/	(>[4.dd-\ 4.ddd-	<
16AA-\	.	.	.
16D-\	.	.	.
16F-X\	.	.	.
16A-\	.	.	.
16d-\JJ	.	.	.
4f-X\)	.	4dd-\] 4ddd-	.
8r	.	8ee-\) 8eee-	[
=192	=192	=192	=192
(16FF\LL	2.cc/ 2.ccc	4.aa-\	>
16C\	.	.	.
16F\	.	.	.
16G\	.	.	.
16A-\	.	.	.
16B-\JJ	.	.	.
4c\)	.	8a-^^>\L 8aa-	]
.	.	8a-^^>\ 8aa-	.
8r	.	8a-^^>\J 8aa-	.
=193	=193	=193	=193
(16FF-X\LL	2.a-/	[4.d-\ [>4.dd-	.
16AA-\	.	.	.
16D-\	.	.	.
16F-X\	.	.	.
16A-\	.	.	.
16d-\JJ	.	.	.
4f-X\)	.	4d-\] 4dd-]	.
8r	.	8e-\ 8ee-	.
=194	=194	=194	=194
!	!LO:TX:a:i:t=rit. poco a poco	!	!
(16FFn\LL	2.cc/	4.c\ 4.a-	.
16C\	.	.	.
16Fn\	.	.	.
16G\	.	.	.
16A-\	.	.	.
16B-\JJ	.	.	.
4c\)	.	8a-^^>\L	.
.	.	8a-^^>\	.
8r	.	8a-^^>\J	.
=195	=195	=195	=195
(16FF-\LL	2.cc/	4.c\ 4.a-	.
16C\	.	.	.
16F-X\	.	.	.
16G-X\	.	.	.
16A-\	.	.	.
16B-\JJ	.	.	.
4c\)	.	8a-^^>\L	.
.	.	8a-^^>\	.
8r	.	8a-^^>\J	.
*	*v	*v	*
!!LO:PB:g=original
=196||	=196||	=196||
*k[f#c#g#]	*k[f#c#g#]	*
*M12/8	*M6/4	*
*MM63	*MM63	*
*^	*^	*
!	!	!LO:TX:a:t=P:problem=metrum w prawej ręce 6/4	!	!LO:DY:rj
!	!LO:N:vis=8.	!LO:TX:a:B:t=Andantino, molto espressivo. M.M. [half]=63.	!	!LO:HP:a
4.e/	8e\L	(2cc#:/	2.c#:\ 2.a:	p <
.	8A\	.	.	.
.	8E\J	.	.	.
!	!LO:N:vis=8.	!	!	!
4.g#/	8g#\L	.	.	.
.	8A\	[4cc#/	.	.
.	8E\J	.	.	.
!	!LO:N:vis=8.	!	!	!
4.f#/	8f#\L	4cc#/]	2c#\ 2a	.
.	8A\	.	.	.
.	8E\J	4cc#/	.	.
!	!LO:N:vis=8.	!	!	!
4.e/	8e\L	.	.	.
.	.	(8qee/	.	.
.	8A\	4dd/)	4d\ 4a	.
.	8E\J	.	.	[
*	*	*v	*v	*
=197	=197	=197	=197
*	*^	*	*
!	!LO:N:vis=8.	!	!	!
4.d/	8d\L	8ryy	2c#/ 2f# 2cc#	>
.	8A\	[<4A/	.	.
.	8E\J	.	.	.
!	!LO:N:vis=8.	!	!	!
4.d/	8d\L	8A/]	.	.
.	8G#\	1ryy	4B/ 4f# [4b	]
.	8E\J	.	.	.
!	!LO:N:vis=8.	!	!	!
4.f#/	8f#\L	.	4b\]	.
.	8d\	.	.	.
.	8G#\J	.	4cc#\	<
!	!LO:N:vis=8.	!	!	!
4.b/	8b\L	.	.	.
.	8f#\	.	4dd\)	[[
.	8d\J	.	.	.
*	*v	*v	*	*
=198	=198	=198	=198
*	*	*^	*
!	!LO:N:vis=8.	!	!	!
4.f#/	8f#\L	(2ee/	2.e\ 2.a	.
.	8A\	.	.	.
.	8E\J	.	.	.
!	!LO:N:vis=8.	!	!	!
4.g#/	8g#\L	.	.	.
!	!	!	!	!LO:HP:a
.	8A\	[4cc#/	.	<
.	8E\J	.	.	.
!	!LO:N:vis=8.	!	!	!
4.f#/	8f#\L	4cc#/]	2c#\ 2a	.
.	8A\	.	.	.
.	8E\J	4cc#/	.	[
!	!LO:N:vis=8.	!	!	!
4.e/	8e\L	.	.	.
.	.	(>8qee/	.	.
.	8A\	4d/) 4a 4dd	4ryy	.
.	8E\J	.	.	.
*	*	*v	*v	*
!!LO:LB:g=original
=199	=199	=199	=199
*	*^	*	*
!	!LO:N:vis=8.	!	!	!
4.d/	8d\L	8ryy	2c#/ 2f# 2cc#	.
.	8A\	[<4A/	.	>
.	8E\J	.	.	.
!	!LO:N:vis=8.	!	!	!
4.d/	8d\L	8A/]	.	.
.	8G#\	1ryy	4B/ 4f# [4b	.
.	8E\J	.	.	.
!	!LO:N:vis=8.	!	!	!
4.f#/	8f#\L	.	4b\]	]
.	8d\	.	.	.
.	8G#\J	.	4cc#\	<
!	!LO:N:vis=8.	!	!	!
4.b/	8b\L	.	.	.
.	8f#\	.	4dd\)	.
.	8d\J	.	.	[
*v	*v	*v	*	*
=200	=200	=200
*M6/4	*M6/4	*
*^	*	*
8ryy	8AAA\L 8AA	2e~</ 2a 2cc# 2ee	mf
!	!LO:N:vis=8.	!	!
4.gn/	8g\	.	<
.	8c#\	.	.
.	8Gn\J	.	.
2f#/	8f#\L	[4f#~\ [4cc# [4ee [4ff#	.
.	8c#\	.	.
.	8A\	4f#\] 4cc#] 4ee] 4ff#]	.
.	8F#\J	.	.
2e/	8e\L	4f#~\ 4cc# 4ee 4ff#	.
.	8c#\	.	.
.	8A\	4gn~\ 4cc# 4ee 4ggn	[ f
.	8E\J	.	.
*v	*v	*	*
=201	=201	=201
*M3/2	*M3/2	*
*^	*	*
8ryy	8AAA\L 8AA	2e~</ 2a 2cc# 2ee	p <
!	!LO:N:vis=8.	!	!
4.gn/	8g\	.	.
.	8c#\	.	.
.	8Gn\J	.	.
2f#/	8f#\L	2f#~\ 2cc# 2ee 2ff#	.
.	8c#\	.	.
.	8A\	.	.
.	8F#\J	.	.
2e/	8e\L	4f#~\ 4cc# 4ee 4ff#	.
.	8c#\	.	.
.	8A\	4gn~\ 4cc# 4ee 4ggn	[
.	8E\J	.	.
*v	*v	*	*
!!LO:LB:g=original
=202	=202	=202
*M6/4	*M6/4	*
*^	*	*
!	!	!	!LO:HP:t=crescendo poco - a - poco:ext=s:ext=cd
8DD/L 8D	8ryy	2a~\ 2ccn 2ff# 2aa	<
*clefG2	*	*	*
!LO:N:vis=8.	!	!	!
8ccn/	4.cc\	.	.
8f#/	.	.	.
8cn/J	.	.	.
8b/L	2b\	[4b~\ [4ff# [4aa [4bb	.
8f#/	.	.	.
8d/	.	4b\] 4ff#] 4aa] 4bb]	.
8B/J	.	.	.
8a/L	2a\	4b~\ 4ff# 4aa 4bb	.
8f#/	.	.	.
8d/	.	4cc~\ 4ff# 4aa 4cccn	.
8A/J	.	.	.
*clefF4	*	*	*
*v	*v	*	*
=203	=203	=203
*M3/2	*M3/2	*
*^	*	*
8GGGn\L 8GGn	8ryy	2dd\ 2ffn 2bb 2ddd	.
!LO:N:vis=8.	!	!	!
8fn\	4.f/	.	.
8B\	.	.	.
8Fn\J	.	.	[
8e\L	2e/	2ee\ 2bb 2ddd 2eee	.
8B\	.	.	.
8Gn\	.	.	.
8E\J	.	.	.
8d\L	2d/	4ee~\ 4bb 4ddd 4eee	.
8B\	.	.	.
8G\	.	4ff~\ 4bb 4ddd 4fffn	.
8D\J	.	.	.
*v	*v	*	*
=204	=204	=204
*M6/4	*M6/4	*
*ped	*	*
8FFF#/L 8FF#	2ff#X\ 2bb 2ddd 2fff#X	<
8FF#/	.	.
8BB/	.	.
8F#/	.	.
8BB/ 8D 8F#	[4ff#\ [4bb [4ddd [4fff#	.
8B/J	.	.
8BB\L 8D 8F#	4ff#\] 4bb] 4ddd] 4fff#]	.
8B\	.	.
8D\ 8F# 8B	4ff#\ 4bb 4ddd 4fff#	.
8d\	.	.
8F#\ 8B 8d	4ff#\ 4bb 4ddd 4fff#	[[
*Xped	*	*
8f#\J	.	.
!!LO:LB:g=original
=205	=205	=205
*ped	*	*
8GGGn/L 8GGn	2ff#\ 2bb-X 2ddd 2fff#	>
8GG/	.	.
8D/	.	.
8Gn/	.	.
8BB-X/ 8D 8G	[4ee\ [4bb-X [4ddd [4eee	]
8B-X/J	.	.
8BB-\L 8D 8G	4ee\] 4bb-] 4ddd] 4eee]	.
8B-\	.	.
8D\ 8G 8B-	4ee\ 4bb- 4ddd 4eee	<
8d\	.	.
.	((8qff#/ [>8qbb- 8qfff#	.
8G\ 8B- 8d	4ee\)) 4bb-] 4eee	.
*Xped	*	*
8g#\J	.	[
=206	=206	=206
*ped	*	*
8BBBn/L	2dd\ 2ff# 2bbn 2ddd	<
8BBn/	.	.
8F#/	.	.
8B/	.	.
8BB/ 8D 8F#	[4dd\ [4ff# [4bb [4ddd	.
8B/J	.	.
8BB\L 8D 8F#	4dd\] 4ff#] 4bb] 4ddd]	.
8B\	.	.
8D\ 8F# 8B	4dd\ 4ff# 4bb 4ddd	.
8d\	.	.
8F#\ 8B 8d	4dd\ 4ff# 4bb 4ddd	.
*Xped	*	*
8f#\J	.	[
=207	=207	=207
*ped	*	*
8GGGn/L	(2dd\ 2ggn 2bb-X 2ddd	>
8GGn/	.	.
8D/	.	.
8Gn/	.	.
8BB-X/ 8D 8G	4b-X\) 4dd 4bb-	]
8B-X/J	.	.
8BB-\L 8D 8G	4b-~\ 4dd 4bb-	.
8B-\	.	.
8D\ 8G 8B-	4a~\ 4dd 4aa	.
8d\	.	.
8G\ 8B- 8d	4gn~\ 4b-X 4gg	.
*Xped	*	*
8gn\J	.	.
!!LO:LB:g=original
=208	=208	=208
*ped	*	*
8BBBn/L	2f#\ 2bn 2dd 2ff#	.
8BBn/	.	.
8F#/	.	.
8B/	.	.
8BB/ 8D 8F#	[4f#\ [4b [4dd [4ff#	.
8B/J	.	.
8BB\L 8D 8F#	4f#\] 4b] 4dd] 4ff#]	.
8B\	.	.
8D\ 8F# 8B	4f#\ 4dd 4ff#	.
8d\	.	.
8F#\ 8B 8d	4b\ 4dd 4ff#	.
*Xped	*	*
8f#\J	.	.
=209	=209	=209
*ped	*	*
!	!LO:TX:a:i:t=poco rit.	!
8GGGn/L	2f#\ 2b-X 2dd 2ff#	.
8GGn/	.	.
8D/	.	.
8B-X/	.	.
8BB-X/ 8D 8F#	[4f#\ [4b- [4dd [4ff#	.
8B-/J	.	.
8BB-\L 8D 8F#	4f#\] 4b-] 4dd] 4ff#]	.
8B-\	.	.
8D\ 8F# 8B-	4f#\ 4dd 4ff#	.
8d\	.	.
8F#\ 8B- 8d	4b-\ 4dd 4ff#	.
8f#\J	.	.
*Xped	*	*
*clefG2	*	*
=210	=210	=210
*^	*	*
*ped	*	*	*
8a/L	2a\	(2f#:\ 2dd: 2ff#:	pp
8d/	.	.	.
8A/	.	.	.
8d/	.	.	.
8a/	4a\	[4f#\ [4dd [4ff#	.
8d/J	.	.	.
8a/L	2a\	4f#\] 4dd] 4ff#]	.
8d/	.	.	.
8A/	.	4f#\ 4dd 4ff#	.
8d/	.	.	.
.	.	(8qaa/	.
8b/	4b\	4gn\) 4dd 4ggn	.
*Xped	*	*	*
8d/J	.	.	.
!!LO:LB:g=original
=211	=211	=211	=211
*	*	*^	*
8gn/L	8ryy	2f#\ 2b 2ff#	2.ryy	.
!LO:N:vis=8.	!	!	!	!
8d/	4.d\	.	.	.
8A/	.	.	.	.
8g/	.	.	.	.
8c#/	4c#\	[4e/ [4ee	.	.
8A/J	.	.	.	.
!LO:N:vis=8.	!	!	!	!
8g/L	4.g\	4ee/]	2.e\]	.
8c#/	.	.	.	.
8A/	.	4ff#/	.	.
!LO:N:vis=8.	!	!	!	!
8b/	4.b\	.	.	.
8g/	.	4ggn/)	.	.
8c#/J	.	.	.	.
*clefF4	*	*	*	*
*v	*v	*	*	*
*	*v	*v	*
=212	=212	=212
*M3/2	*M3/2	*
*^	*^	*
!	!	!	!	!LO:HP:t=poco - a - poco - crescendo:ext=cd
8DD/L 8D	8ryy	2a~\ 2ccn 2ff# 2aa	2ryy	<
*clefG2	*	*	*	*
!LO:N:vis=8.	!	!	!	!
8ccn/	4.cc\	.	.	.
8f#/	.	.	.	.
8c#/J	.	.	.	.
8b/L	2b\	2bb~/	2b\ 2ff# 2aa	.
8f#/	.	.	.	.
8d/	.	.	.	.
8B/J	.	.	.	.
8a/L	2a\	4bb~/	4b\ 4ff# 4aa	.
8f#/	.	.	.	.
8d/	.	4cc~\ 4ff# 4aa 4cccn	4ryy	.
8A/J	.	.	.	.
*clefF4	*	*	*	*
=213	=213	=213	=213	=213
8GGGn\L 8GGn	8ryy	2dd~\ 2ffn 2bb 2ddd	2ryy	.
!LO:N:vis=8.	!	!	!	!
8fn\	4.f/	.	.	.
8B\	.	.	.	.
8Fn\J	.	.	.	.
8e\L	2e/	2eee~/	2ee\ 2bb 2ddd	[
8B\	.	.	.	.
8Gn\	.	.	.	.
8E\J	.	.	.	.
8d\L	2d/	4eee~/	4ee\ 4bb 4ddd	.
8B\	.	.	.	.
8G\	.	4ff\ 4bb 4ddd 4fffn	4ryy	.
8D\J	.	.	.	.
*v	*v	*	*	*
*	*v	*v	*
!!LO:PB:g=original
=214||	=214||	=214||
*k[b-e-a-d-g-]	*k[b-e-a-d-g-]	*
*M6/4	*M6/4	*
!	!	!LO:DY:t=con forza
(8DDD-/L	2ff\ 2aa- 2ddd- 2fff	f
*ped	*	*
8DD-/	.	.
8AA-/	.	.
8D-/	.	.
8AA-/ 8D- 8F	[4ff\ [4aa- [4ddd- [4fff	.
8A-/J	.	.
8AA-\L 8D- 8F	4ff\] 4aa-] 4ddd-] 4fff]	.
8A-\	.	.
8D-\ 8F 8A-	4ff\ 4aa- 4ddd- 4fff	.
8d-\	.	.
8F\ 8A- 8d-	4ff\ 4aa- 4ddd- 4fff	.
*Xped	*	*
8f\J)	.	.
=215	=215	=215
*ped	*	*
(8GGG-/L	2ff\ 2bb-- 2ddd- 2fff	.
8GG-/	.	.
8F/	.	.
8B--/	.	.
8BB--/ 8D- 8G-	4ee-\ 4bb-- 4ddd- 4eee-	.
8B--/J	.	.
8BB--\L 8D- 8G-	4dd-\ 4gg- 4bb-- 4ddd-	.
8B--\	.	.
8D-\ 8G- 8B--	4cc-X\ 4dd- 4gg- 4ccc-X	.
8d-\	.	.
8G-\ 8B-- 8d-	4b--\ 4dd- 4gg- 4bb--	.
*Xped	*	*
8g-\J)	.	.
=216	=216	=216
*ped	*	*
(8DDD-/L	(4a-\ 4dd- 4ff 4aa-	.
8DD-/	.	.
8AA-/	4dd-\ 4ff 4aa- 4ddd-	.
8D-/	.	.
8AA-/ 8D- 8F	4ee-\ 4aa- 4ddd- 4eee-	.
8A-/J	.	.
8AA-\L 8D- 8F	4ff\ 4aa- 4ddd- 4fff	.
8A-\	.	.
8D-\ 8F 8A-	[2bb-\ [2ddd- [2fff [2bbb-	.
8d-\	.	.
8F\ 8A- 8d-	.	.
8f\J)	.	.
!!LO:LB:g=original
=217	=217	=217
*^	*	*
4A-/	8A-\L	4bb-\] 4ddd-] 4fff] 4bbb-]	.
.	8AA-\ 8D- 8F	.	.
4d-/	8d-\	4aa-\ 4ddd- 4fff 4aaa-	.
.	8D-\ 8F 8A-	.	.
4e-/	8e-\	4ff\ 4aa- 4ddd- 4fff	.
.	8E-\J 8F 8A-	.	.
4f/	8f\L	4dd-\ 4ff 4aa- 4ddd-	.
.	8F\ 8A- 8d-	.	.
2a-/	8a-\	4cc\ 4ff 4aa- 4ccc	.
.	[8A-\ [>8d- [>8f	.	.
.	8A-\] 8d-] 8f]	4cc-X\) 4ff 4aa- 4ccc-X	.
.	8A-\J 8d- 8f	.	.
*v	*v	*	*
=218	=218	=218
(8DDD-/L	(4b-\ 4dd- 4gg- 4bb-	.
8DD-/	.	.
8BB-/	4dd-\ 4gg- 4bb- 4ddd-	.
8G-/	.	.
8BB-/ 8D- 8G-	4gg-\ 4bb- 4ddd- 4ggg-	.
8B-/J	.	.
*	*8va	*
8BB-\L 8D- 8G-	4bb-\ 4ddd- 4ggg- 4bbb-	.
8B-\	.	.
8D-\ 8G- 8B-	[2eee-\ [2ggg- [2bbb- [2eeee-	.
8d-\	.	.
8G-\ 8B- 8d-	.	.
8g-\J)	.	.
=219	=219	=219
*^	*	*
*	*^	*	*
(4B-/	8B-\L	1ryy	2eee-\] 2ggg-] 2bbb-] 2eeee-]	.
.	8BB-\ 8D- 8G-	.	.	.
4d-/	8d-\	.	.	.
.	8D-\ 8G- 8B-	.	.	.
4g-/	8g-\	.	4ddd-\ 4ggg- 4bbb- 4dddd-	.
.	8G-\J) 8B- 8d-	.	.	.
*clefG2	*	*	*	*
(4b-/	8b-\L	.	4bb-\ 4ddd- 4ggg- 4bbb-	.
.	8B-\) 8d- 8g-	.	.	.
!	!LO:TUP:b:r=4	!	!	!
2ee-/	12ee-\	4ryy	4aa-\ 4bb- 4ddd- 4aaa-	.
.	12g-\ 12b-	.	.	.
.	12d-\	.	.	.
!	!LO:TUP:b:r=4	!	!	!
.	12b-\	4b-/	4gg-\) 4bb- 4ddd- 4ggg-	.
.	12d-\ 12g-	.	.	.
.	12B-\J	.	.	.
*v	*v	*v	*	*
*clefF4	*	*
!!LO:LB:g=original
=220	=220	=220
(8CC-X/L	4r	.
8C-X/J)	.	.
!LO:TUP:a	!	!
(12f\L	(4aa-\ 4ccc-X 4eee- 4aaa-	.
12e-\	.	.
12A-\J)	.	.
!LO:TUP:a	!	!
(12e-\L	4aa-\) 4ccc- 4eee-	.
12A-\	.	.
12F\J)	.	.
!LO:TUP:b	!	!
(12BBB-/L	(2aa-\ 2dddn 2ggg- 2bbb-	.
12BB-/	.	.
12G-/J)	.	.
(16g-\LL	.	.
16dn\	.	.
16B-\	.	.
16G-\JJ)	.	.
(16f\LL	4aa-\) 4ddd 4fff	.
16d\	.	.
16B-\	.	.
16F\JJ)	.	.
=221	=221	=221
*Xtuplet	*	*
12AAA-/L	(2ccc-X\ 2eee- 2ggg- 2cccc-X	.
12AA-/	.	.
12E-/J	.	.
16c-X\LL	.	.
16G-\	.	.
16E-\	.	.
16AA-\JJ	.	.
*	*X8va	*
16e-\LL	4g-\) 4cc- 4ee-	.
16c-\	.	.
16G-\	.	.
16E-\JJ	.	.
!	!LO:TX:a:i:t=poco rit.	!
8r	4e-~/ 4cc- 4ee-	.
(4A-\ 4c-X 4a-	.	.
.	4f~\ 4cc- 4ee- 4ff	.
4A-\ 4c- 4a-	.	.
.	4g-~\ 4cc- 4ee- 4gg-	.
8A-\) 8c- 8a-	.	.
*clefG2	*	*
!!LO:LB:g=original
=222	=222	=222
*^	*	*
2b-/	8b-\L	(((2gn:\ 2ee-: 2ggn:	.
.	8e-\	.	.
.	8B-\	.	.
.	8e-\	.	.
[4a-/	8a-\	[4f\))) [4dd- [4ff	.
.	8e-\J	.	.
4a-/]	8B-\L 8a-	4f\] 4dd-] 4ff]	.
.	8e-\	.	.
4g-X/	8g-\	4e-~/ 4cc-X 4ee-	.
.	8B-\ 8e-	.	.
4a-/	8a-\	4f~\ 4dd- 4ff	.
.	8B-\J 8e-	.	.
=223	=223	=223	=223
2b-/	8b-\L	2gn~\ 2ee- 2ggn	<
.	8e-\	.	.
.	8B-\	.	.
.	8e-\	.	.
[4b-/	8b-\	[4g~\ [4ee- [4gg	.
.	8e-\J	.	.
4b-/]	8B-\L 8b-	4g\] 4ee-] 4gg]	.
.	8e-\	.	.
4b-/	8b-\	4g~\ 4ee- 4gg	.
.	8B-\ 8e-	.	.
4b-/	8b-\	4g~\ 4ee- 4gg	[
.	8B-\J 8e-	.	.
*v	*v	*	*
*clefF4	*	*
=224||	=224||	=224||
*k[b-e-a-]	*k[b-e-a-]	*
*ped	*	*
!	!LO:TX:a:i:t=poco appassionato	!
8a-\L	(2g\ 2bn 2gg	f
8d\	.	.
8A-\	.	.
8a-\	.	.
8d\	[4f\ [4ff	.
8A-\J	.	.
8a-\L	4f\] 4ff]	.
8d\	.	.
8A-\	4f\ 4ff	.
8a-\	.	.
.	(8qgg/)	.
8d\	4f\) 4ff	.
8A-\J	.	.
*Xped	*	*
!!LO:LB:g=original
=225	=225	=225
*^	*^	*
8f\L	2.ryy	(2e-/ 2ee-	2.a-\	.
8Bn\	.	.	.	.
8F\	.	.	.	.
8f\	.	.	.	.
8B\	.	[<4d/ [4dd	.	.
8F\J	.	.	.	.
*	*tuplet	*	*	*
4en/	12e\L	4d/] 4dd]	2.ryy	.
.	12B\	.	.	.
.	12F\J	.	.	.
4e-X/	12e-\L	4.a-\ 4.aa-	.	.
.	12B\	.	.	.
.	12F\J	.	.	.
4d/	12d\L	.	.	.
.	12B\	.	.	.
.	.	8a-\ 8aa-	.	.
.	12F\J	.	.	.
=226	=226	=226	=226	=226
!	!LO:N:vis=8.	!	!	!
4.d-X/	8d-\L	2a-\ 2aa-	2.dd-X/	.
.	8B-\	.	.	.
.	8En\	.	.	.
!	!LO:N:vis=8.	!	!	!
4.en/	8e\	.	.	.
.	8B-\	[<4g\) [4gg	.	.
.	8E\J	.	.	.
!	!LO:TUP:b:r=4	!	!	!
4g/	(>12g\L	8g\] 8gg]	2.ryy	.
.	12d-\	.	.	.
.	.	4dd-\ 4ddd-X	.	.
.	12B-\)	.	.	.
!	!LO:TUP:b:r=4	!	!	!
4g-X/	(>12g-\	.	.	<
.	12d-\	.	.	.
.	.	4dd-\ 4ddd-	.	.
.	12B-\)	.	.	.
!	!LO:TUP:b:r=4	!	!	!
4f/	(>12f\	.	.	.
.	12d-\	.	.	.
.	.	8dd-\ 8ddd-	.	[
.	12B-\J)	.	.	.
=227	=227	=227	=227	=227
*	*ped	*	*	*
!	!LO:N:vis=8.	!	!	!
4.e-/	(>8e-\L	2dd-X\ 2ddd-X	2.gg-X/	.
.	8An\	.	.	.
.	8E-\)	.	.	.
!	!LO:N:vis=8.	!	!	!
4.g-X/	(>8g-\	.	.	.
.	8c\	[<4cc\ [4ccc	.	.
*	*Xped	*	*	*
.	8G-X\J)	.	.	.
*	*ped	*	*	*
!	!LO:TUP:b:r=4	!	!	!
4an/	(>12a\L	8cc\] 8ccc]	2.ryy	.
.	12e-\	.	.	.
.	.	4ee-\ 4eee-	.	.
.	12c\)	.	.	.
!	!LO:TUP:b:r=4	!	!	!
4a-X/	(>12a-\	.	.	.
.	12e-\	.	.	.
.	.	4ee-\ 4eee-	.	.
.	12c\)	.	.	.
!	!LO:TUP:b:r=4	!	!	!
4gn/	(>12g\	.	.	.
.	12c\	.	.	.
.	.	8ee-\ 8eee-	.	.
*	*Xped	*	*	*
.	12A\J)	.	.	.
*v	*v	*	*	*
*	*v	*v	*
!!LO:LB:g=original
=228||	=228||	=228||
*M2/4	*M2/4	*
*ped	*	*
*Xtuplet	*	*
(12f\L	8r	.
12Bn\	.	.
!	!LO:TX:a:i:t=accelerando	!
.	(4een^\ 4eeen	<
12A-X\	.	.
12F\	.	.
12BBn\	.	.
.	8ff\) 8fff	[[
12AA-\J)	.	.
=229	=229	=229
*ped	*	*
(12en\L	8r	.
12B-X\	.	.
.	(4ff#X^\ 4fff#X	<
12G\	.	.
12En\	.	.
12BB-X\	.	.
.	8gg\) 8ggg	[[
12GG\J)	.	.
=230	=230	=230
*ped	*	*
(12e-X\L	8r	.
12An\	.	.
.	(4gg#X\ 4ggg#X	.
12F#X\	.	.
12E-X\	.	.
12AAn\	.	.
.	8aan\) 8aaan	.
12FF#X\J)	.	.
=231	=231	=231
*ped	*	*
(12d\L	8r	.
12A-X\	.	.
*	*8va	*
.	(4bb-\ 4bbb-	.
12Fn\	.	.
12D\	.	.
12AA-X\	.	.
.	8bbn\) 8bbbn	.
12FFn\J)	.	.
*Xped	*X8va	*
*	*clefF4	*
!!LO:PB:g=original
=232||	=232||	=232||
*k[f#c#g#]	*k[f#c#g#]	*
*M6/8	*M6/8	*
*8ba	*	*
*^	*^	*
!	!	!LO:TX:a:B:t=Largamente.	!	!
4CCC#^>/ 4FFF# 4AAA 4CC#	4.ryy	4c#^/	4.F#\ 4.A	ff
*X8ba	*	*	*	*
8BB#X^>/	.	8B#X/	.	.
4BBn^/	4.CC#\ 4.FF# 4.C#	4Bn^/	4.F#\ 4.c# 4.f#	.
8AA^/	.	8A^/	.	.
=233	=233	=233	=233	=233
4AA:^/	2.DDD:\ 2.DD:	4A^/	2.Fn\ 2.B 2.d 2.fn	.
8GG#^</	.	8G#/	.	.
8GG#^</L	.	8G#^\L	.	.
8AA^</	.	8A^\	.	.
8BB^</J	.	8B^\J	.	.
*v	*v	*	*	*
*	*v	*v	*
=234	=234	=234
*8ba	*	*
*^	*^	*
4CCC#^>/ 4FFF# 4AAA 4CC#	4.ryy	4c#^/	4.F#\ 4.A	.
*X8ba	*	*	*	*
8BB#X^>/	.	8B#X^/	.	.
4BBn^/	4.CC#\ 4.FF# 4.C#	4Bn^/	4.F#\ 4.c# 4.f#	.
8AA^/	.	8A^/	.	.
=235	=235	=235	=235	=235
4AA:^/	2.DDD:\ 2.DD:	2.B/ 2.d 2.fn 2.a	4A^\	.
8GG#^/	.	.	8G#^>\	.
8GG#^</L	.	.	8G#^>\L	.
8AA^</	.	.	8A^>\	.
8BB^</J	.	.	8B^>\J	.
*v	*v	*	*	*
*	*v	*v	*
=236	=236	=236
8r	4.AAAn/ 4.DD-X 4.FF-X 4.AAn	.
8r	.	.
8FFFn/ 8BBB-X 8DD-X 8FFn	.	.
8r	4.DD-/ 4.FF- 4.AA 4.D-X	.
8FFn/ 8BB-X 8D-X 8Fn	.	.
8r	.	.
!!LO:LB:g=original
=237	=237	=237
*^	*	*
*	*^	*	*
*	*	*	*clefG2	*
!	!	!	!LO:N:vis=2	!
4A/	4AA:\	2.DDD:\ 2.DD:	2.Bn/ 2.dn 2.fn 2.a	.
8G#/	8GG#\	.	.	.
4Gn/	4GGn\	.	.	.
8F#/	8FF#\	.	.	.
*v	*v	*v	*	*
=238	=238	=238
8r	4.Fn/ 4.B-X 4.d-X 4.fn	.
8r	.	.
8FFFn/ 8BBB-X 8DD-X 8FFn	.	.
8r	4.B-/ 4.d- 4.f 4.b-X	.
8FFn/ 8BB-X 8D-X 8Fn	.	.
8r	.	.
=239	=239	=239
*^	*	*
*	*^	*	*
4A^/	4AA:\	2.DDD:\ 2.DD:	2.B/ 2.d 2.fn 2.a	.
8G#^/	8GG#^\	.	.	.
4Gn^/	4GGn^\	.	.	.
8F#^/	8FF#^\	.	.	.
*	*v	*v	*	*
=240	=240	=240	=240
4Fn^/	2DDD\ 2DD	4.A/ 4.d 4.fn 4.a	.
8E^/	.	.	.
4E-X^/	.	4.d/ 4.f 4.a 4.dd	.
.	4ryy	.	.
8D^>/	.	.	.
=241	=241	=241	=241
*	*	*^	*
4A:^>/	2.FFF#:\ 2.FF#: 2.C#:	2.c#/ 2.d#X 2.a 2.cc#	4a^\	.
8G#^>/	.	.	8g#^\	.
4Gn^>/	.	.	4gn^\	.
8F#^>/	.	.	8f#^\	.
*	*	*v	*v	*
=242	=242	=242	=242
.	8qDDD:/ 8qDD:	.	.
4Fn:^/	2.DDD\ 2.DD	4A/ 4d 4fn 4a	.
8E^/	.	4d/ 4f 4a 4dd	.
4E-X^/	.	.	.
.	.	4e/ 4f 4a 4ee	.
8D^/	.	.	.
!!LO:LB:g=original
=243	=243	=243	=243
*	*	*^	*
!	!	!LO:N:vis=2	!	!
4A:^/	2.AAA:\ 2.FF#: 2.C#:	2.c#/ 2.d#X 2.a 2.cc#	4a^\	.
8G#^/	.	.	8g#^\	.
4Gn^/	.	.	4gn^\	.
8F#^/	.	.	8f#^\	.
*	*	*v	*v	*
=244	=244	=244	=244
4Fn:^/	2DDD:\ 2DD:	4A^>/ 4d 4fn 4a	.
8E^/	.	4d^>/ 4f 4a 4dd	.
4E-X^/	.	.	.
.	4ryy	4f^>\ 4a 4dd 4ffn	.
8D^>/	.	.	.
*v	*v	*	*
=245	=245	=245
4CCn/ 4EE-X 4GGn 4Cn	2.gn^\ 2.ccn 2.ee-X 2.ggn	.
8BBB/ 8BB	.	.
4BBB-X/ 4BB-X	.	.
8AAA/ 8AA	.	.
=246	=246	=246
!	!	!LO:HP:t=crescendo possibile
4GGG#X/ 4BBB 4DD#X 4GG#X	2.g#X^\ 2.b 2.dd#X 2.gg#X	<
8GGGn/ 8GGn	.	.
4FFF#/ 4FF#	.	.
8FFFn/ 8FFn	.	.
=247	=247	=247
4EEE/ 4GGG# 4BBB 4EE	2.b^\ 2.ee 2.ggn 2.bb	.
8DDD#X/ 8DD#X	.	.
4DDDn/ 4DDn	.	.
8CCC#/ 8CC#	.	.
!!LO:LB:g=original
=248||	=248||	=248||
*M3/4	*M3/4	*
*8ba	*	*
!	!LO:TX:b:i:t=molto rit.	!
4CCCn^>/ 4EEE-X 4GGGn 4CCn	(2ccn\ 2ee-X 2ggn 2cccn	.
4BBBB^>/ 4BBB	.	.
[4BBBB-X^>/ [4EEE-X [4GGG-X [4BBB-X	[4ee-\ [4gg-X [4bb-X [4eee-X	>
=249	=249	=249
4BBBB-/] 4EEE-] 4GGG-] 4BBB-]	4ee-\] 4gg-] 4bb-] 4eee-]	.
*X8ba	*	*
2BB-X\ 2E-X 2G-X 2B-X	2e-X/) 2g-X 2b-X 2ee-X	] p
=250||	=250||	=250||
*k[b-e-a-d-]	*k[b-e-a-d-]	*
*M6/8	*M6/8	*
!	!LO:TX:a:B:t=Presto, con trionfo.	!
4EEE-/ 4EE-	4ee-\ 4ggn 4bb- 4eee-	fff
*clefG2	*	*
[8d-/ [8e- [8g	[8b-\ [8ee- [8bb-	.
8d-/L] 8e-] 8g]	8b-\L] 8ee-] 8bb-]	.
8.d-/ 8.e- 8.g	8.b-\ 8.ee- 8.bb-	.
16d-/Jk 16e- 16a-	16cc\Jk 16ee- 16ccc	.
=251	=251	=251
4d-/ 4e- 4a-	4cc\ 4ee- 4ccc	.
8d-/ 8e- 8g	[8b-\ [8ee- [8bb-	.
*clefF4	*	*
8e-\L	8b-\L] 8ee-] 8bb-]	.
8E-\	8.b-\ 8.bb-	.
8E-\J	.	.
.	16ee-\Jk 16eee-	.
=252	=252	=252
4DDn/ 4Dn	4een\ 4gg#X 4bbn 4eeen	.
*clefG2	*	*
[8dn/ [8en [8g#X	[8bn\ [8ee [8bb	.
8d/L] 8e] 8g#]	8b\L] 8ee] 8bb]	.
8.d/ 8.e 8.g#	8.b\ 8.ee 8.bb	.
16d/Jk 16e 16an	16cc#X\Jk 16ee 16ccc#X	.
!!LO:LB:g=original
=253	=253	=253
4dn/ 4en 4an	4cc#X\ 4een 4ccc#X	.
8d/ 8e 8g#X	[8bn\ [8ee [8bbn	.
*clefF4	*	*
8DDn/L 8Dn	8b\L] 8ee] 8bb]	.
8CC#X/ 8C#X	8.b\ 8.ee 8.bb	.
8BBBn/J 8BBn	.	.
.	16ee\Jk 16eeen	.
=254	=254	=254
4BBB-X/ 4BB-X	4ff\ 4bb-X 4dddn 4fff	.
[8BB-\ [8En [8G [8c#X	[8gg\ [8bb- [8ccc#X [8ggg	.
8BB-\L] 8E] 8G] 8c#]	8gg\L] 8bb-] 8ccc#] 8ggg]	.
8E\ 8G 8c#	8gg\ 8bb- 8ccc# 8ggg	.
8F\J 8A-X 8dn	8ff\J 8bb- 8ddd 8fff	.
=255	=255	=255
4F\ 4A-X 4dn	4ff\ 4bb- 4dddn 4fff	.
*	*8va	*
[8G\ [8B-X [8en	[8bb-\ [>8ccc#X [8eeen [8bbb-X	.
4G\] 4B-] 4e]	8bb-\L] 8ccc#] 8eee] 8bbb-]	.
.	8.bb-\ 8.ccc# 8.eee 8.bbb-	.
8A-\ 8Bn 8f	.	.
.	16ff\Jk 16bbn 16dddn 16fff	.
=256	=256	=256
4A-\ 4Bn 4f	4ff\ 4bbn 4dddn 4fff	.
*clefG2	*	*
[8B-X/ [>8c#X [8g	[8bb-X\ [>8ccc#X [8eeen [8bbb-X	.
4B-/] 4c#] 4g]	8bb-\L] 8ccc#] 8eee] 8bbb-]	.
.	8bb-\ 8ccc# 8eee 8bbb-	.
8Bn/ 8d- 8a-	8ff\J 8bbn 8ddd 8fff	.
!!LO:LB:g=original
=257	=257	=257
4c/ 4e- 4an	4ff\ 4ccc 4eee- 4fff	.
[8Bn/ [8d- [8a-X	[8aa-\ [8bbn [>8dddn [8aaa-	.
4B/] 4d-] 4a-]	8aa-\L] 8bb] 8ddd] 8aaa-]	.
.	8.aa-\ 8.bb 8.ddd 8.aaa-	.
8c/ 8e- 8an	.	.
.	16ee-\Jk 16gg-X 16ccc 16eee-	.
=258	=258	=258
4d-/ 4g 4b-	4ee-/ 4ggn 4bb- 4eee-	.
[8dn/ [8f [8bn	[8aa-\ [>8bbn [>8dddn [8aaa-	.
4d/] 4f] 4b]	8aa-\L] 8bb] 8ddd] 8aaa-]	.
.	8.aa-\ 8.bb 8.ddd 8.aaa-	.
8e-/ 8g-X 8cc	.	.
.	16ee-\Jk 16aa- 16ccc 16eee-	.
=259	=259	=259
4e-/ 4g-X 4cc	4ee-/ 4aa- 4ccc 4eee-	.
4f/ 4a- 4ddn	8ccc^\ 8aaa- 8cccc	.
.	8ccc^\L 8aaa- 8cccc	.
4g-X\ 4cc 4ee-	8ccc^\ 8aaa- 8cccc	.
.	8ccc^\J 8aaa- 8cccc	.
*clefF4	*	*
=260	=260	=260
8DD-/ 8D-	4ccc\ 4fff 4cccc	.
4G\ 4B- 4f	.	.
.	[8ff\ [8fff	.
4B-\ 4e- 4g	8ff\L] 8fff]	.
.	8.gg\ 8.bb- 8.eee- 8.ggg	.
8d-\ 8g 8b-	.	.
.	16bb-\Jk 16bbb-	.
=261	=261	=261
8CC/ 8C	4bb-\ 4ccc 4eee- 4bbb-	.
4E-\ 4A- 4c 4e-	.	.
.	[8ee-/ [8eee-	.
8BBBn/ 8BBn	8ee-\L] 8eee-]	.
8F\ 8A- 8dn 8f	8.ff\ 8.aa- 8.dddn 8.fff	.
8A-\ 8d 8f 8a-	.	.
.	16aa-\Jk 16aaa-	.
!!LO:PB:g=original
=262	=262	=262
!	!LO:TX:a:i:t=rit._	!
8BBB-X/ 8BB-X	4aa-\ 4ddd-X 4aaa-	.
[4F\ [4A- [4d-X [4f	.	.
.	8gg\ 8ggg	.
8F\] 8A-] 8d-] 8f]	8ff/L 8fff	.
4A-\ 4d- 4f 4a-	8ee-/ 8eee-	.
.	8dd-/J 8ddd-	.
*	*X8va	*
=263	=263	=263
*M3/4	*M3/4	*
*^	*	*
*ped	*	*	*
!	!	!LO:TX:a:i:t=a tempo	!
4EEE-/ 4EE-	4ryy	2cc\ 2ff 2aa- 2ccc	.
*clefG2	*	*	*
16g/LL	4g\	.	.
16dn/	.	.	.
16B-/	.	.	.
16A-/JJ	.	.	.
16f/LL	4f\	[4b-\ [4ff [4aa- [4bb-	.
16d/	.	.	.
16B-/	.	.	.
16A-/JJ	.	.	.
=264	=264	=264	=264
16a-/LL	4a-\	4b-\] 4ff] 4aa-] 4bb-]	.
16dn/	.	.	.
16B-/	.	.	.
16A-/JJ	.	.	.
16g/LL	4g\	4..b-\ 4..ff 4..aa- 4..bb-	.
16d/	.	.	.
16B-/	.	.	.
16A-/JJ	.	.	.
16f/LL	4f\	.	.
16d/	.	.	.
16B-/	.	.	.
16A-/JJ	.	16cc\ 16ccc	.
!!LO:LB:g=original
=265	=265	=265	=265
16a-/LL	4a-\	2cc\ 2ff 2aa- 2ccc	.
16dn/	.	.	.
16B-/	.	.	.
16A-/JJ	.	.	.
16g/LL	4g\	.	.
16d/	.	.	.
16B-/	.	.	.
16A-/JJ	.	.	.
16f/LL	4f\	[4b-\ [4ff [4aa- [4bb-	.
16d/	.	.	.
16B-/	.	.	.
16A-/JJ	.	.	.
=266	=266	=266	=266
16a-/LL	4a-\	4b-\] 4ff] 4aa-] 4bb-]	.
16dn/	.	.	.
16B-/	.	.	.
16A-/JJ	.	.	.
16g/LL	4g\	4..b-\ 4..ff 4..aa- 4..bb-	.
16d/	.	.	.
16B-/	.	.	.
16A-/JJ	.	.	.
16f/LL	4f\	.	.
16d/	.	.	.
16B-/	.	.	.
16A-/JJ	.	16ff\ 16fff	.
*Xped	*	*	*
*clefF4	*	*	*
=267	=267	=267	=267
*ped	*	*	*
4EEE-/ 4EE-	4ryy	2ff\ 2bb- 2ddd- 2fff	.
*clefG2	*	*	*
16a-/LL	4a-^\	.	.
16d-X/	.	.	.
16B-/	.	.	.
16A-/JJ	.	.	.
16g/LL	4g^\	[4ee-\ [4bb- [4ddd- [4eee-	.
16d-/	.	.	.
16B-/	.	.	.
16G/JJ	.	.	.
!!LO:LB:g=original
=268	=268	=268	=268
16b-/LL	4b-^\	4ee-\] 4bb-] 4ddd-] 4eee-]	.
16d-/	.	.	.
16c/	.	.	.
16B-/JJ	.	.	.
16a-/LL	4a-^\	4..b-\ 4..ff 4..aa- 4..bb-	.
16d-/	.	.	.
16B-/	.	.	.
16A-/JJ	.	.	.
16g/LL	4g^\	.	.
16d-/	.	.	.
16B-/	.	.	.
16G/JJ	.	16ff\ 16fff	.
=269	=269	=269	=269
16b-/LL	4b-^\	2ff\ 2bb- 2ddd- 2fff	.
16d-/	.	.	.
16c/	.	.	.
16B-/JJ	.	.	.
16a-/LL	4a-^\	.	.
16d-/	.	.	.
16B-/	.	.	.
16A-/JJ	.	.	.
16g/LL	4g^\	[4ee-\ [4bb- [4ddd- [4eee-	.
16d-/	.	.	.
16B-/	.	.	.
16G/JJ	.	.	.
=270	=270	=270	=270
16b-/LL	4b-^\	4ee-\] 4bb-] 4ddd-] 4eee-]	.
16d-/	.	.	.
16c/	.	.	.
16B-/JJ	.	.	.
16a-/LL	4a-^\	4..ee-\ 4..bb- 4..ddd- 4..eee-	.
16d-/	.	.	.
16B-/	.	.	.
16A-/JJ	.	.	.
16g/LL	4g^\	.	.
16d-/	.	.	.
16B-/	.	.	.
16G/JJ	.	16bb-\ 16bbb-	.
*v	*v	*	*
*clefF4	*	*
!!LO:LB:g=original
=271	=271	=271
*ped	*	*
4EEE-/ 4EE-	4bb-\ 4dddn 4fff 4bbb-	.
*clefG2	*	*
8b-X/L	8bb-X\L	.
8Bn/ 8d- 8f	8bn\ 8dd- 8ff	.
8a-/	8aa-\	.
8B/J 8d- 8f	8b\J 8dd- 8ff	.
=272	=272	=272
(16F/LL	4aa-T\	.
16A-/	.	.
16Bn/	.	.
16dn/JJ	.	.
16f/LL	4..aa-\ 4..aaa-	.
16a-/	.	.
16bn/	.	.
16ddn/JJ	.	.
4ff\)	.	.
.	16bb-\ 16bbb-	.
*Xped	*	*
*clefF4	*	*
=273	=273	=273
*ped	*	*
4EEE-/ 4EE-	4bb-\ 4dddn 4fff 4bbb-	.
*clefG2	*	*
8b-/L	8bb-\L	.
8Bn/ 8d- 8f	8bn\ 8dd- 8ff	.
8a-/	8aa-\	.
8B/J 8d- 8f	8b\J 8dd- 8ff	.
=274	=274	=274
(16F/LL	4aa-T\	.
16A-/	.	.
16Bn/	.	.
16dn/JJ	.	.
16f/LL	4..aa-\ 4..aaa-	.
16a-/	.	.
16bn/	.	.
16ddn/JJ	.	.
4ff\)	.	.
*	*8va	*
.	16fff\ 16ffff	.
*Xped	*	*
*clefF4	*	*
!!LO:LB:g=original
=275||	=275||	=275||
*M6/4	*M6/4	*
!	!LO:TX:b:i:t=con forza possibile	!
4EEE-^>/ 4EE-	2fff\ 2bbb-X 2dddd-X 2ffff	.
*clefG2	*	*
4A-^>/ 4B- 4d- 4a-	.	.
*	*X8va	*
4G^>/ 4B- 4d- 4g	4ee-^\ 4bb- 4ddd- 4eee-	.
*clefF4	*	*
4GG^>/ 4BB- 4D- 4G	4ee-^\ 4bb- 4ddd- 4eee-	.
4FF^>/ 4BB- 4D- 4F	4..ee-\ 4..bb- 4..ddd- 4..eee-	.
4EE-^>/ 4BB- 4D- 4E-	.	.
*	*8va	*
.	16fff\ 16ffff	.
=276	=276	=276
4EEE-^>/ 4EE-	4fff^\ 4bbb- 4dddd- 4ffff	.
*clefG2	*	*
*	*X8va	*
4A-^>/ 4B- 4d- 4a-	4ff^\ 4bb- 4ddd- 4fff	.
4G^>/ 4B- 4d- 4g	4ee-^\ 4bb- 4ddd- 4eee-	.
*clefF4	*	*
4GG/ 4BB- 4D- 4G	4ee-^\ 4bb- 4ddd- 4eee-	.
4FF/ 4BB- 4D- 4F	4..ee-\ 4..bb- 4..ddd- 4..eee-	.
4EE-/ 4BB- 4D- 4E-	.	.
.	16ff\ 16fff	.
=277	=277	=277
4EEE-^>/ 4EE-	4ff^\ 4bb- 4ddd- 4fff	.
4G^\ 4B- 4d- 4g	4ee-^\ 4bb- 4ddd- 4eee-	.
4F^\ 4B- 4d- 4f	4ff^\ 4bb- 4ddd- 4fff	.
4E-^\ 4B- 4d- 4e-	4gg^\ 4bb- 4eee- 4ggg	.
4E-^\ 4A- 4c 4f	4aa-^\ 4ccc 4fff 4aaa-	.
4E-^\ 4B- 4d- 4g	4bb-^\ 4ddd- 4ggg 4bbb-	.
=278	=278	=278
*	*8va	*
!	!LO:TX:a:i:t=poco lento	!
4E-:\ 4c: 4e-: 4a-:	2ccc^\ 2eee- 2aaa- 2cccc	.
4AAA-^>/ 4CC 4EE- 4AA-	.	.
[4E-^\ [4c [4e- [4a-	[4ccc^\ [4eee- [4aaa- [4cccc	.
4E-\] 4c] 4e-] 4a-]	4ccc\] 4eee-] 4aaa-] 4cccc]	.
4c^\ 4e- 4a-	4ccc^\ 4eee- 4aaa- 4cccc	.
.	8qeeee-/	.
4B-^\ 4d- 4f 4a-	4ddd-^\ 4aaa- 4dddd-	.
!!LO:LB:g=original
=279	=279	=279
2c^\ 2e- 2a-	2ccc^\ 2eee- 2aaa- 2cccc	.
4d-^\ 4f 4a-	4bb-^\ 4fff 4aaa- 4bbb-	.
!	!LO:TX:a:i:t=molto rit.	!
4d-^\ 4f 4a-	4bb-^\ 4fff 4aaa- 4bbb-	.
4c^\ 4e- 4a-	4ccc^\ 4eee- 4aaa- 4cccc	.
4B-^\ 4d- 4f 4a-	4ddd-^\ 4fff 4aaa- 4dddd-	.
=280	=280	=280
*ped	*	*
!	!LO:TX:a:i:t=a tempo	!
4A-\ 4c 4e- 4a-	2eee-\ 2aaa- 2cccc 2eeee-	.
4AAA-/ 4CC 4EE- 4AA-	.	.
4A-\ 4c 4e- 4a-	[4eee-\ [4aaa- [4cccc [4eeee-	.
4E-\ 4A- 4c 4e-	4eee-\] 4aaa-] 4cccc] 4eeee-]	.
4A-\ 4c 4e- 4a-	4..eee-\ 4..aaa- 4..cccc 4..eeee-	.
4E-\ 4A- 4c 4e-	.	.
.	16eee-\ 16eeee-	.
=281	=281	=281
4A-\ 4c 4e- 4a-	2eee-\ 2aaa- 2cccc 2eeee-	.
4AAA-/ 4CC 4EE- 4AA-	.	.
4A-\ 4c 4e- 4a-	[4eee-\ [4aaa- [4cccc [4eeee-	.
4E-\ 4A- 4c 4e-	4eee-\] 4aaa-] 4cccc] 4eeee-]	.
4A-\ 4c 4e- 4a-	4..eee-\ 4..aaa- 4..cccc 4..eeee-	.
4E-\ 4A- 4c 4e-	.	.
.	16eeee-\	.
=282	=282	=282
2AAA-/ 2CC 2EE- 2AA-	2aaa-\ 2cccc 2eeee- 2aaaa-	.
*	*X8va	*
[4E-\ [4A- [4c [4a-	[4aa-\ [4ccc [4eee- [4aaa-	.
4E-\] 4A-] 4c] 4a-]	4aa-\] 4ccc] 4eee-] 4aaa-]	.
2E-\ 2A- 2c 2a-	2aa-\ 2ccc 2eee- 2aaa-	.
=283	=283	=283
2.AAA-;/ 2.AA-	2.A-;/	.
*Xped	*	*
==	==	==
*-	*-	*-
!!!system-decoration: {(s1,s2)}
!!!RDF**kern: < = below
!!!RDF**kern: > = above
!!!RDF**kern: N = linked
!!!RDF**kern: Z = editorial accidental, paren
!!!ENC: Berenika Jozajtis
!!!END: 2023-10-21
!!!EED: Marta Chmielewska
!!!EEV: 2023-11-09
